Sources/MetaVisGraphics/Resources/LUTs/aces13_sdr_srgb_display_rrt_odt_33.cube
LUT_3D_SIZE 33
0.000000 0.000000 0.000000
0.113658 -0.010091 -0.000323
0.193897 -0.025678 -0.000822
0.258987 -0.044843 -0.001435
0.313491 -0.065846 -0.002107
0.363617 -0.089275 -0.002826
0.410469 -0.114786 -0.003467
0.454725 -0.142260 -0.004052
0.495661 -0.170683 -0.004571
0.533947 -0.200027 -0.005005
0.569051 -0.229368 -0.005369
0.601424 -0.258527 -0.005715
0.631426 -0.287392 -0.006040
0.659335 -0.315861 -0.006338
0.685392 -0.343865 -0.006612
0.709801 -0.371330 -0.006870
0.732737 -0.398215 -0.007112
0.754349 -0.424503 -0.007336
0.774764 -0.450185 -0.007532
0.794091 -0.475258 -0.007685
0.812428 -0.499723 -0.007796
0.829735 -0.523406 -0.007860
0.845860 -0.545959 -0.007864
0.860896 -0.567396 -0.007810
0.874931 -0.587745 -0.007698
0.888048 -0.607038 -0.007529
0.900318 -0.625320 -0.007303
0.911806 -0.642634 -0.007022
0.922571 -0.659014 -0.006685
0.932667 -0.674499 -0.006294
0.942141 -0.689122 -0.005850
0.951038 -0.702919 -0.005353
0.959397 -0.715924 -0.004806
-0.048578 0.084946 -0.006655
0.083739 0.080053 -0.007032
0.190912 0.068748 -0.007698
0.260676 0.052762 -0.008254
0.316858 0.032456 -0.008756
0.367296 0.009444 -0.009249
0.414088 -0.015294 -0.009728
0.458096 -0.041777 -0.010188
0.498800 -0.068962 -0.010625
0.536522 -0.096409 -0.011084
0.571147 -0.123810 -0.011534
0.603110 -0.151004 -0.011967
0.632758 -0.177872 -0.012382
0.660359 -0.204313 -0.012785
0.686146 -0.230264 -0.013173
0.710319 -0.255684 -0.013544
0.733046 -0.280546 -0.013891
0.754473 -0.304836 -0.014195
0.774722 -0.328544 -0.014456
0.793901 -0.351667 -0.014673
0.812103 -0.374208 -0.014848
0.829236 -0.395915 -0.014972
0.845196 -0.416510 -0.015035
0.860080 -0.436017 -0.015039
0.873977 -0.454466 -0.014983
0.886966 -0.471890 -0.014870
0.899117 -0.488322 -0.014699
0.910495 -0.503798 -0.014472
0.921158 -0.518354 -0.014189
0.931157 -0.532026 -0.013852
0.940541 -0.544848 -0.013461
0.949353 -0.556855 -0.013024
0.957633 -0.568085 -0.012544
-0.149287 0.168419 -0.020452
0.002232 0.165518 -0.020750
0.164171 0.158359 -0.020893
0.251151 0.149560 -0.021010
0.317196 0.140141 -0.021188
0.371997 0.130241 -0.021426
0.420258 0.119521 -0.021726
0.464185 0.107558 -0.022108
0.504447 0.094624 -0.022594
0.541203 0.080003 -0.023091
0.574945 0.062847 -0.023581
0.606134 0.041432 -0.024065
0.635106 0.016165 -0.024539
0.662122 -0.008719 -0.025001
0.687406 -0.033137 -0.025440
0.711145 -0.057054 -0.025840
0.733497 -0.080444 -0.026198
0.754596 -0.103292 -0.026514
0.774559 -0.125589 -0.026787
0.793487 -0.147332 -0.027017
0.811459 -0.168507 -0.027203
0.828305 -0.188753 -0.027335
0.844008 -0.207918 -0.027406
0.858663 -0.226028 -0.027418
0.872354 -0.243110 -0.027371
0.885158 -0.259195 -0.027265
0.897142 -0.274318 -0.027102
0.908368 -0.288513 -0.026882
0.918893 -0.301813 -0.026606
0.928766 -0.314254 -0.026281
0.938035 -0.325870 -0.025912
0.946742 -0.336695 -0.025499
0.954924 -0.346762 -0.025045
-0.271150 0.231626 -0.036971
-0.119819 0.229438 -0.036962
0.118907 0.224936 -0.037045
0.226492 0.219043 -0.036997
0.303711 0.212240 -0.036941
0.367032 0.204916 -0.037034
0.421288 0.197282 -0.037271
0.468454 0.189813 -0.037674
0.509617 0.182637 -0.038179
0.546256 0.175401 -0.038697
0.579511 0.168026 -0.039218
0.610074 0.160459 -0.039735
0.638387 0.152667 -0.040234
0.664768 0.144616 -0.040698
0.689466 0.136271 -0.041124
0.712674 0.127584 -0.041510
0.734549 0.118499 -0.041856
0.755224 0.108936 -0.042161
0.774808 0.098788 -0.042423
0.793399 0.087901 -0.042644
0.811021 0.076097 -0.042819
0.827481 0.063318 -0.042937
0.842839 0.049156 -0.042995
0.857186 0.033055 -0.042995
0.870602 0.017217 -0.042936
0.883158 0.002348 -0.042820
0.894918 -0.011586 -0.042646
0.905943 -0.024617 -0.042422
0.916286 -0.036776 -0.042152
0.925994 -0.048099 -0.041838
0.935112 -0.058617 -0.041481
0.943681 -0.068363 -0.041081
0.951737 -0.077368 -0.040640
-0.411874 0.286484 -0.055618
-0.259867 0.284930 -0.055492
0.027650 0.281677 -0.055483
0.192200 0.277361 -0.055554
0.281084 0.272204 -0.055478
0.352163 0.266395 -0.055525
0.413059 0.260379 -0.055788
0.465161 0.254592 -0.056249
0.509520 0.248970 -0.056747
0.548077 0.243547 -0.057268
0.582203 0.238315 -0.057790
0.612986 0.233216 -0.058292
0.641163 0.228199 -0.058765
0.667230 0.223232 -0.059206
0.691530 0.218295 -0.059612
0.714310 0.213375 -0.059980
0.735759 0.208464 -0.060310
0.756023 0.203560 -0.060599
0.775222 0.198657 -0.060848
0.793456 0.193756 -0.061055
0.810633 0.188920 -0.061213
0.826655 0.184229 -0.061312
0.841618 0.179690 -0.061353
0.855607 0.175309 -0.061336
0.868699 0.171092 -0.061261
0.880961 0.167044 -0.061135
0.892457 0.163169 -0.060963
0.903241 0.159472 -0.060745
0.913365 0.155956 -0.060483
0.922875 0.152625 -0.060177
0.931812 0.149480 -0.059829
0.940216 0.146525 -0.059439
0.948121 0.143761 -0.059008
-0.571160 0.336639 -0.076477
-0.417742 0.335444 -0.076316
-0.131827 0.332910 -0.076335
0.143832 0.329525 -0.076464
0.251873 0.325454 -0.076588
0.331324 0.321124 -0.076804
0.398300 0.316384 -0.077182
0.454818 0.311505 -0.077626
0.502720 0.306735 -0.078098
0.544089 0.302148 -0.078566
0.580383 0.297772 -0.079023
0.612650 0.293610 -0.079464
0.641671 0.289652 -0.079885
0.668109 0.285865 -0.080283
0.692489 0.282208 -0.080652
0.715174 0.278652 -0.080989
0.736426 0.275180 -0.081290
0.756437 0.271779 -0.081554
0.775358 0.268440 -0.081780
0.793269 0.265168 -0.081964
0.809996 0.262033 -0.082094
0.825595 0.259048 -0.082167
0.840163 0.256212 -0.082184
0.853786 0.253526 -0.082150
0.866542 0.250989 -0.082069
0.878495 0.248599 -0.081943
0.889707 0.246354 -0.081772
0.900232 0.244254 -0.081556
0.910118 0.242297 -0.081297
0.919409 0.240479 -0.080995
0.928146 0.238799 -0.080651
0.936366 0.237253 -0.080266
0.944103 0.235840 -0.079842
-0.747363 0.383283 -0.099552
-0.591940 0.382313 -0.099413
-0.306737 0.380284 -0.099481
0.056838 0.377836 -0.099820
0.215204 0.374841 -0.100282
0.305891 0.371319 -0.100668
0.378773 0.367322 -0.101045
0.439519 0.363139 -0.101454
0.490850 0.358988 -0.101855
0.535076 0.354959 -0.102245
0.573738 0.351103 -0.102620
0.607939 0.347443 -0.102979
0.638519 0.343982 -0.103318
0.666131 0.340713 -0.103637
0.691283 0.337624 -0.103933
0.714397 0.334694 -0.104205
0.735844 0.331893 -0.104448
0.755897 0.329199 -0.104659
0.774758 0.326595 -0.104835
0.792424 0.324100 -0.104967
0.808821 0.321751 -0.105046
0.824081 0.319542 -0.105077
0.838315 0.317466 -0.105063
0.851615 0.315518 -0.105003
0.864062 0.313695 -0.104899
0.875725 0.311994 -0.104749
0.886665 0.310410 -0.104556
0.896937 0.308939 -0.104319
0.906587 0.307580 -0.104039
0.915661 0.306329 -0.103718
0.924196 0.305181 -0.103354
0.932230 0.304136 -0.102951
0.939795 0.303188 -0.102507
-0.934083 0.426112 -0.124011
-0.776211 0.425440 -0.123989
-0.490098 0.423867 -0.124186
-0.123594 0.421726 -0.124525
0.167747 0.419110 -0.124983
0.276465 0.416051 -0.125547
0.356539 0.412574 -0.125908
0.421493 0.408912 -0.126249
0.476034 0.405224 -0.126571
0.522945 0.401598 -0.126873
0.563908 0.398092 -0.127153
0.600072 0.394743 -0.127410
0.632314 0.391568 -0.127644
0.661322 0.388567 -0.127855
0.687633 0.385737 -0.128042
0.711677 0.383069 -0.128207
0.733795 0.380551 -0.128347
0.754273 0.378172 -0.128461
0.773349 0.375913 -0.128548
0.790950 0.373806 -0.128598
0.807198 0.371849 -0.128609
0.822258 0.370028 -0.128580
0.836262 0.368335 -0.128508
0.849318 0.366762 -0.128395
0.861516 0.365301 -0.128239
0.872932 0.363947 -0.128042
0.883632 0.362695 -0.127802
0.893672 0.361540 -0.127521
0.903103 0.360479 -0.127199
0.911969 0.359508 -0.126837
0.920310 0.358623 -0.126434
0.928160 0.357822 -0.125992
0.935554 0.357100 -0.125512
-1.123997 0.464795 -0.148881
-0.962368 0.464168 -0.148861
-0.674416 0.462746 -0.149056
-0.307116 0.460820 -0.149377
0.098397 0.458471 -0.149800
0.242690 0.455729 -0.150317
0.332419 0.452633 -0.150859
0.402030 0.449366 -0.151135
0.459645 0.446054 -0.151387
0.509022 0.442760 -0.151610
0.552101 0.439539 -0.151801
0.590116 0.436435 -0.151962
0.623979 0.433471 -0.152093
0.654393 0.430658 -0.152197
0.681918 0.427999 -0.152274
0.706998 0.425490 -0.152325
0.729997 0.423124 -0.152351
0.751210 0.420894 -0.152361
0.770766 0.418807 -0.152352
0.788593 0.416895 -0.152313
0.804922 0.415145 -0.152240
0.819962 0.413538 -0.152132
0.833877 0.412060 -0.151989
0.846797 0.410701 -0.151807
0.858831 0.409451 -0.151588
0.870066 0.408301 -0.151330
0.880576 0.407246 -0.151034
0.890424 0.406280 -0.150698
0.899665 0.405398 -0.150324
0.908344 0.404596 -0.149912
0.916505 0.403869 -0.149462
0.924184 0.403215 -0.148974
0.931414 0.402629 -0.148449
-1.313158 0.499689 -0.173636
-1.147625 0.499091 -0.173594
-0.857730 0.497779 -0.173749
-0.489475 0.496013 -0.174024
-0.055259 0.493862 -0.174400
0.202816 0.491356 -0.174869
0.306178 0.488533 -0.175420
0.381500 0.485570 -0.175832
0.442342 0.482560 -0.176019
0.494046 0.479546 -0.176169
0.539062 0.476572 -0.176280
0.578773 0.473679 -0.176353
0.614146 0.470895 -0.176388
0.645908 0.468235 -0.176389
0.674625 0.465707 -0.176358
0.700756 0.463315 -0.176305
0.724673 0.461054 -0.176235
0.746682 0.458921 -0.176150
0.766809 0.456939 -0.176041
0.785074 0.455128 -0.175900
0.801721 0.453479 -0.175728
0.816954 0.451980 -0.175526
0.830953 0.450618 -0.175294
0.843877 0.449378 -0.175030
0.855859 0.448250 -0.174734
0.867002 0.447222 -0.174404
0.877394 0.446286 -0.174039
0.887107 0.445436 -0.173639
0.896202 0.444665 -0.173203
0.904731 0.443969 -0.172732
0.912741 0.443343 -0.172226
0.920269 0.442782 -0.171684
0.927352 0.442284 -0.171107
-1.500108 0.531414 -0.198017
-1.330650 0.530836 -0.197935
-1.038737 0.529606 -0.198045
-0.669405 0.527962 -0.198273
-0.234302 0.525964 -0.198601
0.152502 0.523640 -0.199021
0.277408 0.521027 -0.199521
0.359858 0.518297 -0.200044
0.424427 0.515523 -0.200276
0.478486 0.512744 -0.200358
0.525312 0.509986 -0.200396
0.566572 0.507281 -0.200388
0.603326 0.504658 -0.200335
0.636334 0.502134 -0.200243
0.666181 0.499721 -0.200125
0.693328 0.497426 -0.199986
0.718154 0.495250 -0.199826
0.740963 0.493191 -0.199649
0.761689 0.491284 -0.199441
0.780450 0.489542 -0.199200
0.797502 0.487955 -0.198927
0.813060 0.486512 -0.198623
0.827306 0.485204 -0.198291
0.840392 0.484022 -0.197931
0.852452 0.482955 -0.197543
0.863612 0.481993 -0.197127
0.873974 0.481125 -0.196682
0.883624 0.480343 -0.196206
0.892633 0.479640 -0.195698
0.901061 0.479009 -0.195159
0.908958 0.478445 -0.194587
0.916368 0.477944 -0.193983
0.923330 0.477501 -0.193347
-1.683788 0.560431 -0.221864
-1.510432 0.559866 -0.221739
-1.216454 0.558700 -0.221803
-0.845943 0.557152 -0.221983
-0.409851 0.555275 -0.222262
0.075737 0.553094 -0.222632
0.245369 0.550648 -0.223080
0.336980 0.548097 -0.223550
0.405935 0.545518 -0.224014
0.462592 0.542926 -0.224034
0.511201 0.540353 -0.224002
0.553898 0.537818 -0.223919
0.591911 0.535341 -0.223792
0.626058 0.532943 -0.223632
0.656946 0.530637 -0.223441
0.685046 0.528430 -0.223223
0.710741 0.526328 -0.222980
0.734318 0.524334 -0.222715
0.755660 0.522488 -0.222414
0.774944 0.520797 -0.222077
0.792436 0.519254 -0.221706
0.808360 0.517849 -0.221302
0.822906 0.516575 -0.220869
0.836237 0.515422 -0.220408
0.848489 0.514383 -0.219920
0.859780 0.513448 -0.219406
0.870214 0.512611 -0.218868
0.879885 0.511863 -0.218305
0.888879 0.511195 -0.217715
0.897262 0.510600 -0.217097
0.905096 0.510072 -0.216451
0.912428 0.509606 -0.215776
0.919302 0.509197 -0.215072
-1.863584 0.587118 -0.245092
-1.686365 0.586561 -0.244923
-1.390293 0.585447 -0.244940
-1.018528 0.583977 -0.245071
-0.581366 0.582197 -0.245301
-0.084583 0.580133 -0.245620
0.208636 0.577822 -0.246015
0.312693 0.575418 -0.246430
0.386787 0.572988 -0.246839
0.446405 0.570557 -0.247113
0.496922 0.568136 -0.247014
0.541007 0.565750 -0.246874
0.580182 0.563408 -0.246693
0.615367 0.561128 -0.246473
0.647204 0.558922 -0.246216
0.676182 0.556799 -0.245927
0.702689 0.554767 -0.245608
0.726990 0.552834 -0.245262
0.748938 0.551040 -0.244874
0.768749 0.549393 -0.244447
0.786695 0.547886 -0.243982
0.803007 0.546511 -0.243483
0.817882 0.545260 -0.242952
0.831487 0.544127 -0.242392
0.843966 0.543104 -0.241805
0.855443 0.542182 -0.241192
0.866024 0.541355 -0.240554
0.875802 0.540617 -0.239893
0.884858 0.539962 -0.239210
0.893264 0.539381 -0.238504
0.901089 0.538869 -0.237774
0.908391 0.538420 -0.237020
0.915229 0.538026 -0.236240
-2.039144 0.611785 -0.267651
-1.858108 0.611234 -0.267437
-1.559927 0.610161 -0.267407
-1.186845 0.608755 -0.267489
-0.748546 0.607056 -0.267668
-0.250845 0.605088 -0.267936
0.164181 0.602890 -0.268278
0.286666 0.600607 -0.268638
0.366959 0.598302 -0.268991
0.429888 0.595999 -0.269334
0.482514 0.593709 -0.269404
0.528051 0.591448 -0.269216
0.568331 0.589228 -0.268985
0.604471 0.587057 -0.268710
0.637173 0.584946 -0.268394
0.666951 0.582905 -0.268041
0.694204 0.580942 -0.267654
0.719177 0.579067 -0.267233
0.741707 0.577323 -0.266767
0.762032 0.575716 -0.266255
0.780431 0.574240 -0.265703
0.797138 0.572890 -0.265113
0.812354 0.571659 -0.264490
0.826252 0.570541 -0.263835
0.838979 0.569528 -0.263151
0.850664 0.568614 -0.262441
0.861419 0.567793 -0.261705
0.871339 0.567057 -0.260946
0.880508 0.566402 -0.260165
0.888999 0.565821 -0.259362
0.896877 0.565310 -0.258539
0.904200 0.564863 -0.257696
0.911066 0.564470 -0.256833
-2.210266 0.634685 -0.289513
-2.025467 0.634137 -0.289254
-1.725172 0.633100 -0.289175
-1.350722 0.631746 -0.289207
-0.911234 0.630115 -0.289335
-0.412558 0.628229 -0.289551
0.103264 0.626125 -0.289844
0.258379 0.623945 -0.290159
0.346350 0.621744 -0.290472
0.413028 0.619547 -0.290774
0.467967 0.617369 -0.291057
0.515065 0.615216 -0.290917
0.556481 0.613100 -0.290637
0.593518 0.611029 -0.290313
0.627015 0.609007 -0.289944
0.657522 0.607045 -0.289532
0.685456 0.605148 -0.289083
0.711047 0.603331 -0.288595
0.734122 0.601636 -0.288055
0.754939 0.600067 -0.287467
0.773777 0.598622 -0.286834
0.790873 0.597295 -0.286160
0.806433 0.596082 -0.285448
0.820630 0.594977 -0.284703
0.833617 0.593973 -0.283928
0.845525 0.593065 -0.283123
0.856470 0.592246 -0.282293
0.866549 0.591510 -0.281438
0.875851 0.590852 -0.280561
0.884451 0.590268 -0.279662
0.892417 0.589751 -0.278743
0.899811 0.589297 -0.277804
0.906760 0.588893 -0.276851
-2.376856 0.656028 -0.310665
-2.188354 0.655482 -0.310359
-1.885947 0.654473 -0.310231
-1.510089 0.653165 -0.310213
-1.069365 0.651591 -0.310297
-0.569666 0.649774 -0.310474
-0.020538 0.647752 -0.310729
0.226982 0.645659 -0.311005
0.324812 0.643548 -0.311279
0.395803 0.641441 -0.311541
0.453252 0.639354 -0.311784
0.502052 0.637298 -0.311965
0.544663 0.635271 -0.311637
0.582607 0.633287 -0.311265
0.616846 0.631350 -0.310846
0.648021 0.629462 -0.310382
0.676575 0.627630 -0.309876
0.702731 0.625869 -0.309326
0.726311 0.624222 -0.308721
0.747589 0.622691 -0.308062
0.766844 0.621276 -0.307354
0.784317 0.619973 -0.306601
0.800213 0.618778 -0.305808
0.814709 0.617685 -0.304978
0.827959 0.616690 -0.304115
0.840098 0.615786 -0.303222
0.851242 0.614968 -0.302300
0.861493 0.614232 -0.301353
0.870941 0.613572 -0.300382
0.879664 0.612982 -0.299389
0.887732 0.612459 -0.298376
0.895226 0.611995 -0.297346
0.902280 0.611578 -0.296305
-2.538888 0.675988 -0.331100
-2.346751 0.675443 -0.330752
-2.042242 0.674459 -0.330584
-1.664936 0.673189 -0.330530
-1.222939 0.671664 -0.330579
-0.722174 0.669907 -0.330720
-0.172636 0.667955 -0.330939
0.190935 0.665939 -0.331176
0.302139 0.663906 -0.331410
0.378163 0.661877 -0.331633
0.438383 0.659868 -0.331836
0.488977 0.657890 -0.332016
0.532880 0.655946 -0.331983
0.571769 0.654038 -0.331563
0.606745 0.652174 -0.331097
0.638541 0.650356 -0.330584
0.667663 0.648587 -0.330025
0.694334 0.646882 -0.329419
0.718378 0.645281 -0.328753
0.740082 0.643790 -0.328029
0.759728 0.642405 -0.327253
0.777558 0.641126 -0.326428
0.793778 0.639949 -0.325559
0.808565 0.638869 -0.324649
0.822077 0.637882 -0.323704
0.834447 0.636984 -0.322726
0.845795 0.636169 -0.321717
0.856224 0.635432 -0.320682
0.865827 0.634768 -0.319621
0.874683 0.634173 -0.318540
0.882864 0.633644 -0.317439
0.890476 0.633170 -0.316322
0.897643 0.632740 -0.315193
-2.695966 0.694660 -0.350782
-2.500209 0.694113 -0.350399
-2.193585 0.693147 -0.350194
-1.814781 0.691907 -0.350103
-1.371454 0.690423 -0.350113
-0.869562 0.688715 -0.350216
-0.319576 0.686821 -0.350394
0.147161 0.684868 -0.350589
0.278150 0.682900 -0.350782
0.360125 0.680936 -0.350962
0.423414 0.678992 -0.351122
0.475927 0.677078 -0.351258
0.521176 0.675200 -0.351366
0.561062 0.673358 -0.351104
0.596797 0.671556 -0.350587
0.629201 0.669798 -0.350022
0.658847 0.668084 -0.349411
0.685987 0.666429 -0.348749
0.710455 0.664870 -0.348023
0.732551 0.663413 -0.347236
0.752560 0.662055 -0.346392
0.770724 0.660797 -0.345496
0.787250 0.659634 -0.344551
0.802318 0.658564 -0.343564
0.816083 0.657582 -0.342536
0.828682 0.656684 -0.341472
0.840235 0.655866 -0.340376
0.850846 0.655123 -0.339252
0.860609 0.654452 -0.338103
0.869605 0.653847 -0.336930
0.877908 0.653305 -0.335738
0.885653 0.652814 -0.334529
0.892940 0.652366 -0.333308
-2.844978 0.711820 -0.369296
-2.645582 0.711267 -0.368876
-2.336834 0.710313 -0.368632
-1.956474 0.709097 -0.368500
-1.511756 0.707643 -0.368469
-1.008674 0.705974 -0.368530
-0.458203 0.704127 -0.368665
0.087708 0.702227 -0.368816
0.253073 0.700311 -0.368965
0.342054 0.698401 -0.369100
0.408679 0.696511 -0.369215
0.463203 0.694649 -0.369306
0.509819 0.692824 -0.369369
0.550727 0.691037 -0.369402
0.587227 0.689286 -0.368895
0.620235 0.687577 -0.368277
0.650375 0.685912 -0.367614
0.677935 0.684301 -0.366897
0.702782 0.682781 -0.366113
0.725228 0.681354 -0.365265
0.745563 0.680022 -0.364357
0.764031 0.678782 -0.363392
0.780840 0.677633 -0.362376
0.796168 0.676571 -0.361313
0.810173 0.675593 -0.360207
0.822990 0.674696 -0.359063
0.834740 0.673875 -0.357886
0.845530 0.673127 -0.356678
0.855451 0.672447 -0.355444
0.864589 0.671832 -0.354184
0.873020 0.671277 -0.352903
0.880898 0.670770 -0.351604
0.888307 0.670305 -0.350293
-2.985519 0.727558 -0.386589
-2.782498 0.726997 -0.386132
-2.471639 0.726053 -0.385849
-2.089695 0.724856 -0.385677
-1.643558 0.723429 -0.385606
-1.139251 0.721793 -0.385626
-0.588292 0.719987 -0.385719
-0.024007 0.718131 -0.385826
0.226620 0.716261 -0.385931
0.323985 0.714397 -0.386022
0.394232 0.712553 -0.386093
0.450855 0.710737 -0.386139
0.498863 0.708956 -0.386158
0.540775 0.707214 -0.386146
0.578063 0.705511 -0.386009
0.611668 0.703844 -0.385340
0.642292 0.702220 -0.384624
0.670239 0.700649 -0.383855
0.695419 0.699165 -0.383017
0.718175 0.697769 -0.382112
0.738800 0.696461 -0.381144
0.757541 0.695241 -0.380116
0.774604 0.694106 -0.379034
0.790171 0.693053 -0.377902
0.804397 0.692081 -0.376725
0.817418 0.691186 -0.375509
0.829356 0.690364 -0.374256
0.840315 0.689612 -0.372971
0.850391 0.688926 -0.371656
0.859667 0.688302 -0.370314
0.868227 0.687736 -0.368949
0.876237 0.687215 -0.367566
0.883768 0.686735 -0.366169
-3.117878 0.742016 -0.402701
-2.911247 0.741448 -0.402208
-2.598299 0.740512 -0.401885
-2.214745 0.739331 -0.401674
-1.767164 0.737926 -0.401563
-1.261604 0.736318 -0.401543
-0.710152 0.734547 -0.401594
-0.145988 0.732730 -0.401659
0.198219 0.730900 -0.401720
0.305893 0.729076 -0.401768
0.380085 0.727272 -0.401795
0.438893 0.725496 -0.401798
0.488318 0.723753 -0.401773
0.531235 0.722049 -0.401717
0.569284 0.720384 -0.401630
0.603499 0.718758 -0.401250
0.634598 0.717169 -0.400482
0.662919 0.715634 -0.399661
0.688401 0.714183 -0.398771
0.711429 0.712816 -0.397813
0.732309 0.711532 -0.396789
0.751290 0.710331 -0.395703
0.768582 0.709210 -0.394560
0.784363 0.708169 -0.393366
0.798790 0.707203 -0.392126
0.812000 0.706311 -0.390842
0.824111 0.705490 -0.389520
0.835231 0.704735 -0.388162
0.845454 0.704045 -0.386772
0.854862 0.703414 -0.385353
0.863551 0.702839 -0.383909
0.871689 0.702307 -0.382446
0.879339 0.701814 -0.380967
-3.242381 0.755321 -0.417675
-3.032155 0.754745 -0.417146
-2.717137 0.753815 -0.416785
-2.331957 0.752647 -0.416535
-1.882910 0.751261 -0.416385
-1.376071 0.749677 -0.416325
-0.824129 0.747937 -0.416335
-0.260064 0.746154 -0.416358
0.166873 0.744359 -0.416377
0.287743 0.742570 -0.416382
0.366245 0.740801 -0.416367
0.427325 0.739059 -0.416326
0.478188 0.737351 -0.416258
0.522108 0.735680 -0.416159
0.560904 0.734047 -0.416029
0.595715 0.732455 -0.415867
0.627288 0.730899 -0.415232
0.655970 0.729395 -0.414360
0.681743 0.727973 -0.413420
0.705013 0.726633 -0.412410
0.726115 0.725373 -0.411333
0.745308 0.724190 -0.410194
0.762800 0.723085 -0.408997
0.778773 0.722054 -0.407747
0.793381 0.721097 -0.406447
0.806761 0.720210 -0.405101
0.819033 0.719390 -0.403714
0.830301 0.718635 -0.402289
0.840661 0.717941 -0.400829
0.850197 0.717305 -0.399338
0.859010 0.716723 -0.397819
0.867270 0.716181 -0.396281
0.875034 0.715677 -0.394725
-3.359362 0.767581 -0.431558
-3.145579 0.766998 -0.430994
-2.828500 0.766073 -0.430595
-2.441674 0.764916 -0.430307
-1.991146 0.763546 -0.430118
-1.483009 0.761983 -0.430020
-0.930585 0.760270 -0.429990
-0.366596 0.758516 -0.429972
0.130593 0.756752 -0.429948
0.269484 0.754994 -0.429912
0.352718 0.753255 -0.429854
0.416157 0.751544 -0.429772
0.468474 0.749866 -0.429661
0.513394 0.748224 -0.429520
0.552926 0.746620 -0.429347
0.588305 0.745056 -0.429143
0.620354 0.743531 -0.428906
0.649386 0.742054 -0.428000
0.675437 0.740658 -0.427008
0.698937 0.739342 -0.425949
0.720236 0.738103 -0.424825
0.739611 0.736940 -0.423637
0.757279 0.735849 -0.422390
0.773420 0.734831 -0.421087
0.788189 0.733882 -0.419732
0.801722 0.733000 -0.418328
0.814139 0.732183 -0.416881
0.825544 0.731429 -0.415393
0.836032 0.730733 -0.413868
0.845685 0.730094 -0.412309
0.854616 0.729506 -0.410721
0.862992 0.728956 -0.409111
0.870865 0.728444 -0.407482
-3.469177 0.778894 -0.444398
-3.251871 0.778303 -0.443799
-2.932738 0.777382 -0.443364
-2.544254 0.776234 -0.443038
-2.092229 0.774878 -0.442811
-1.582778 0.773333 -0.442675
-1.029881 0.771644 -0.442605
-0.465952 0.769916 -0.442546
0.084161 0.768179 -0.442482
0.251050 0.766449 -0.442404
0.339507 0.764737 -0.442305
0.405394 0.763053 -0.442181
0.459177 0.761401 -0.442029
0.505089 0.759785 -0.441846
0.545345 0.758207 -0.441632
0.581277 0.756667 -0.441386
0.613766 0.755166 -0.441107
0.643158 0.753717 -0.440626
0.669477 0.752344 -0.439587
0.693197 0.751049 -0.438481
0.714679 0.749830 -0.437311
0.734214 0.748684 -0.436077
0.752032 0.747609 -0.434783
0.768319 0.746602 -0.433430
0.783229 0.745662 -0.432023
0.796898 0.744787 -0.430566
0.809445 0.743974 -0.429062
0.820973 0.743221 -0.427516
0.831578 0.742525 -0.425930
0.841340 0.741884 -0.424308
0.850382 0.741291 -0.422655
0.858866 0.740736 -0.420978
0.866841 0.740216 -0.419279
-3.572169 0.789345 -0.456243
-3.351384 0.788747 -0.455610
-3.030205 0.787828 -0.455138
-2.640050 0.786688 -0.454775
-2.186514 0.785343 -0.454511
-1.675732 0.783814 -0.454337
-1.122376 0.782146 -0.454229
-0.558493 0.780442 -0.454130
0.007254 0.778729 -0.454025
0.232358 0.777023 -0.453907
0.326616 0.775336 -0.453767
0.395037 0.773676 -0.453602
0.450295 0.772048 -0.453409
0.497190 0.770455 -0.453186
0.538153 0.768899 -0.452930
0.574624 0.767381 -0.452643
0.607537 0.765901 -0.452325
0.637261 0.764474 -0.451967
0.663850 0.763124 -0.451205
0.687780 0.761848 -0.450055
0.709437 0.760647 -0.448839
0.729120 0.759517 -0.447561
0.747068 0.758456 -0.446221
0.763480 0.757461 -0.444822
0.778512 0.756531 -0.443366
0.792300 0.755663 -0.441859
0.804961 0.754855 -0.440302
0.816600 0.754104 -0.438701
0.827309 0.753409 -0.437058
0.837171 0.752767 -0.435377
0.846314 0.752171 -0.433662
0.854898 0.751611 -0.431922
0.862969 0.751086 -0.430159
-3.668684 0.799011 -0.467140
-3.444458 0.798405 -0.466473
-3.121243 0.797487 -0.465966
-2.729407 0.796354 -0.465566
-2.274353 0.795019 -0.465266
-1.762228 0.793504 -0.465055
-1.208425 0.791855 -0.464908
-0.644579 0.790171 -0.464770
-0.079022 0.788480 -0.464626
0.213291 0.786796 -0.464467
0.314048 0.785130 -0.464288
0.385089 0.783492 -0.464083
0.441827 0.781885 -0.463849
0.489690 0.780313 -0.463586
0.531344 0.778777 -0.463292
0.568336 0.777278 -0.462968
0.601659 0.775817 -0.462612
0.631692 0.774410 -0.462216
0.658542 0.773080 -0.461767
0.682676 0.771822 -0.460716
0.704499 0.770636 -0.459456
0.724321 0.769521 -0.458134
0.742389 0.768474 -0.456750
