Sources/MetaVisGraphics/Resources/LUTs/aces13_hdr_rec2100pq1000_display_rrt_odt_33.cube
LUT_3D_SIZE 9
0.000001 0.000001 0.000001
0.278532 -0.013538 0.014448
0.350365 -0.016493 0.022753
0.394615 0.016595 0.029076
0.425597 0.035448 0.034103
0.449148 0.049901 0.038276
0.467975 0.062387 0.041839
0.483546 0.073553 0.044943
0.496749 0.083718 0.047689
-0.058236 0.291957 -0.018071
0.292056 0.291814 -0.008024
0.366158 0.292498 0.017073
0.405684 0.294191 0.025077
0.433198 0.296009 0.030653
0.454617 0.297804 0.035123
0.472090 0.299562 0.038889
0.486760 0.301285 0.042147
0.499333 0.302977 0.045015
-0.085233 0.368594 -0.028613
0.292307 0.369134 -0.023893
0.369891 0.369616 -0.013318
0.413629 0.370139 0.014595
0.442119 0.370831 0.024134
0.462660 0.371673 0.030037
0.478801 0.372591 0.034471
0.492270 0.373529 0.038118
0.503872 0.374465 0.041252
-0.103350 0.413627 -0.036249
0.292888 0.413977 -0.032806
0.370362 0.414301 -0.026585
0.414897 0.414605 -0.017262
0.445220 0.414930 0.009705
0.467222 0.415327 0.021735
0.484039 0.415803 0.028357
0.497492 0.416346 0.033106
0.508693 0.416933 0.036856
-0.116805 0.444636 -0.042184
0.293501 0.444889 -0.039355
0.370797 0.445124 -0.034630
0.415224 0.445354 -0.028569
0.445873 0.445571 -0.020408
0.468751 0.445803 -0.004429
0.486453 0.446072 0.018443
0.500583 0.446386 0.026003
0.512198 0.446742 0.031198
-0.127457 0.467959 -0.047032
0.294194 0.468154 -0.044566
0.371259 0.468334 -0.040645
0.415536 0.468513 -0.035905
0.446116 0.468687 -0.030226
0.469164 0.468856 -0.023025
0.487342 0.469034 -0.012056
0.502017 0.469233 0.014175
0.514113 0.469460 0.023159
-0.136234 0.486461 -0.051123
0.294979 0.486616 -0.048897
0.371758 0.486761 -0.045486
0.415865 0.486905 -0.041496
0.446358 0.487048 -0.036948
0.469355 0.487186 -0.031679
0.487635 0.487323 -0.025263
0.502597 0.487465 -0.016497
0.515043 0.487622 0.007952
-0.143668 0.501673 -0.054654
0.295861 0.501801 -0.052596
0.372293 0.501921 -0.049542
0.416218 0.502039 -0.046045
0.446605 0.502158 -0.042170
0.469551 0.502277 -0.037864
0.487792 0.502390 -0.032984
0.502820 0.502503 -0.027217
0.515451 0.502622 -0.019842
-0.150094 0.514508 -0.057753
0.296833 0.514616 -0.055819
0.372864 0.514717 -0.053031
0.416593 0.514817 -0.049886
0.446870 0.514917 -0.046465
0.469746 0.515017 -0.042756
0.487953 0.515117 -0.038698
0.502951 0.515213 -0.034172
0.515629 0.515310 -0.028948
0.020635 -0.019343 0.290428
0.290238 -0.024359 0.290636
0.364922 -0.030081 0.290856
0.403212 -0.034276 0.291248
0.430619 -0.013516 0.291620
0.452359 0.038632 0.292012
0.470226 0.056714 0.292428
0.485260 0.070456 0.292864
0.498146 0.082061 0.293318
-0.054988 0.290650 0.290865
0.291402 0.291402 0.291402
0.360351 0.293113 0.291848
0.401751 0.294860 0.292245
0.431052 0.296605 0.292635
0.453510 0.298339 0.293030
0.471574 0.300059 0.293435
0.486587 0.301764 0.293853
0.499364 0.303454 0.294284
-0.083787 0.368636 0.290642
0.292088 0.369174 0.291476
0.369845 0.369672 0.292115
0.412367 0.370308 0.292646
0.439055 0.371215 0.293037
0.459273 0.372184 0.293402
0.475859 0.373144 0.293781
0.489891 0.374089 0.294178
0.501992 0.375019 0.294593
-0.102340 0.413654 0.290571
0.292657 0.414003 0.291402
0.370270 0.414327 0.292048
0.414874 0.414646 0.292662
0.444946 0.415007 0.293246
0.466239 0.415482 0.293752
0.482360 0.416055 0.294191
0.495453 0.416679 0.294600
0.506649 0.417317 0.295010
-0.116011 0.444654 0.290540
0.293259 0.444906 0.291369
0.370699 0.445141 0.292022
0.415165 0.445372 0.292646
0.445859 0.445603 0.293273
0.468662 0.445854 0.293893
0.486073 0.446159 0.294471
0.499830 0.446522 0.295000
0.511098 0.446934 0.295486
-0.126791 0.467972 0.290613
0.293941 0.468166 0.291440
0.371157 0.468346 0.292100
0.415469 0.468524 0.292732
0.446075 0.468703 0.293367
0.469154 0.468882 0.294017
0.487308 0.469073 0.294670
0.501847 0.469293 0.295298
0.513738 0.469549 0.295892
-0.135653 0.486469 0.290812
0.294719 0.486625 0.291637
0.371650 0.486769 0.292302
0.415795 0.486912 0.292941
0.446303 0.487056 0.293584
0.469324 0.487199 0.294241
0.487628 0.487344 0.294916
0.502582 0.487497 0.295597
0.514959 0.487668 0.296264
-0.143147 0.501679 0.291142
0.295592 0.501807 0.291963
0.372181 0.501926 0.292633
0.416145 0.502044 0.293278
0.446549 0.502163 0.293927
0.469504 0.502281 0.294590
0.487767 0.502401 0.295271
0.502814 0.502522 0.295970
0.515445 0.502649 0.296676
-0.149617 0.514512 0.291601
0.296559 0.514620 0.292417
0.372748 0.514721 0.293091
0.416517 0.514820 0.293740
0.446811 0.514920 0.294394
0.469697 0.515020 0.295062
0.487913 0.515121 0.295747
0.502931 0.515223 0.296450
0.515624 0.515327 0.297170
0.032613 -0.030689 0.367947
0.289426 -0.033865 0.368416
0.368336 -0.038230 0.368786
0.412844 -0.042147 0.369127
0.441058 -0.045288 0.369410
0.460828 -0.047211 0.369642
0.476532 -0.016083 0.369859
0.489884 0.047144 0.370081
0.501551 0.067118 0.370312
-0.049952 0.290309 0.368658
0.290967 0.291368 0.369105
0.369190 0.292327 0.369461
0.411688 0.293592 0.369758
0.437346 0.295556 0.369959
0.457369 0.297538 0.370157
0.474129 0.299419 0.370370
0.488427 0.301222 0.370597
0.500795 0.302969 0.370834
-0.081397 0.368635 0.368878
0.291656 0.369173 0.369317
0.369670 0.369670 0.369670
0.408348 0.370558 0.369902
0.436104 0.371454 0.370130
0.457564 0.372352 0.370359
0.474932 0.373250 0.370592
0.489433 0.374145 0.370830
0.501819 0.375038 0.371074
-0.100691 0.413654 0.369022
0.292227 0.414003 0.369456
0.370092 0.414327 0.369808
0.414762 0.414646 0.370146
0.443914 0.415063 0.370444
0.463752 0.415659 0.370673
0.479542 0.416295 0.370889
0.492948 0.416926 0.371112
0.504582 0.417547 0.371344
-0.114720 0.444653 0.369175
0.292831 0.444905 0.369604
0.370521 0.445139 0.369956
0.415051 0.445371 0.370294
0.445774 0.445602 0.370634
0.468369 0.445865 0.370962
0.485190 0.446213 0.371249
0.498349 0.446633 0.371500
0.509290 0.447090 0.371735
-0.125713 0.467969 0.369367
0.293517 0.468163 0.369791
0.370979 0.468343 0.370143
0.415354 0.468522 0.370482
0.445989 0.468700 0.370822
0.469084 0.468879 0.371168
0.487167 0.469074 0.371511
0.501456 0.469311 0.371831
0.513021 0.469594 0.372125
-0.134716 0.486466 0.369606
0.294297 0.486621 0.370026
0.371473 0.486766 0.370377
0.415681 0.486909 0.370716
0.446217 0.487052 0.371057
0.469253 0.487196 0.371404
0.487568 0.487341 0.371758
0.502492 0.487495 0.372113
0.514748 0.487674 0.372455
-0.142311 0.501674 0.369895
0.295175 0.501802 0.370311
0.372004 0.501922 0.370662
0.416030 0.502040 0.371001
0.446462 0.502158 0.371342
0.469432 0.502277 0.371689
0.487706 0.502397 0.372044
0.502760 0.502518 0.372407
0.515377 0.502645 0.372772
-0.148858 0.514507 0.370233
0.296145 0.514615 0.370645
0.372572 0.514715 0.370995
0.416403 0.514815 0.371334
0.446725 0.514915 0.371675
0.469625 0.515015 0.372022
0.487851 0.515116 0.372377
0.502876 0.515218 0.372741
0.515575 0.515321 0.373112
0.041172 -0.038828 0.413179
0.288944 -0.041211 0.413484
0.368141 -0.044666 0.413728
0.413485 -0.047958 0.413960
0.444423 -0.050914 0.414189
0.466603 -0.053436 0.414399
0.483127 -0.055550 0.414584
0.496066 -0.046660 0.414746
0.506864 0.021972 0.414898
-0.043799 0.290259 0.413648
0.290492 0.291319 0.413939
0.368995 0.292279 0.414173
0.414039 0.293219 0.414397
0.444498 0.294257 0.414612
0.465500 0.295754 0.414790
0.480947 0.297662 0.414932
0.493631 0.299677 0.415066
0.504686 0.301656 0.415204
-0.078733 0.368627 0.413802
0.291185 0.369166 0.414089
0.369476 0.369663 0.414320
0.414359 0.370152 0.414542
0.443446 0.370806 0.414736
0.462450 0.371820 0.414868
0.478033 0.372844 0.415000
0.491540 0.373821 0.415143
0.503367 0.374763 0.415295
-0.098897 0.413650 0.413907
0.291760 0.413999 0.414189
0.369899 0.414323 0.414420
0.414642 0.414642 0.414642
0.440938 0.415225 0.414792
0.461455 0.415813 0.414944
0.478164 0.416402 0.415099
0.492180 0.416991 0.415257
0.504194 0.417581 0.415418
-0.113332 0.444649 0.414016
0.292369 0.444901 0.414295
0.370329 0.445135 0.414525
0.414928 0.445366 0.414747
0.445683 0.445597 0.414969
0.467550 0.445902 0.415168
0.483161 0.446339 0.415322
0.495995 0.446805 0.415469
0.507159 0.447266 0.415620
-0.124563 0.467964 0.414149
0.293060 0.468158 0.414425
0.370788 0.468339 0.414654
0.415232 0.468517 0.414876
0.445897 0.468695 0.415098
0.469010 0.468874 0.415324
0.486920 0.469079 0.415544
0.500710 0.469350 0.415737
0.511751 0.469677 0.415906
-0.133722 0.486460 0.414311
0.293846 0.486616 0.414584
0.371283 0.486760 0.414813
0.415558 0.486903 0.415034
0.446125 0.487046 0.415256
0.469178 0.487190 0.415482
0.487504 0.487335 0.415714
0.502368 0.487493 0.415944
0.514407 0.487686 0.416158
-0.141429 0.501668 0.414504
0.294729 0.501797 0.414774
0.371815 0.501916 0.415002
0.415909 0.502034 0.415223
0.446370 0.502152 0.415445
0.469357 0.502271 0.415672
0.487641 0.502391 0.415903
0.502703 0.502512 0.416140
0.515294 0.502641 0.416377
-0.148059 0.514500 0.414727
0.295706 0.514609 0.414995
0.372384 0.514709 0.415222
0.416282 0.514809 0.415443
0.446633 0.514908 0.415665
0.469550 0.515009 0.415891
0.487786 0.515110 0.416123
0.502819 0.515212 0.416360
0.515524 0.515315 0.416602
0.047800 -0.045145 0.444345
0.288462 -0.047088 0.444566
0.367947 -0.049996 0.444740
0.413363 -0.052828 0.444907
0.444585 -0.055439 0.445074
0.467947 -0.057809 0.445243
0.485929 -0.059898 0.445405
0.500041 -0.061710 0.445554
0.511409 -0.058629 0.445690
-0.036172 0.290210 0.444678
0.290017 0.291271 0.444889
0.368802 0.292233 0.445057
0.413917 0.293173 0.445217
0.444977 0.294109 0.445378
0.468147 0.295092 0.445539
0.485645 0.296336 0.445687
0.499124 0.297922 0.445814
0.509928 0.299784 0.445925
-0.075920 0.368621 0.444779
0.290715 0.369159 0.444986
0.369284 0.369656 0.445152
0.414237 0.370145 0.445311
0.445200 0.370633 0.445471
0.468056 0.371174 0.445627
0.484622 0.371949 0.445756
0.497199 0.372935 0.445860
0.507768 0.373981 0.445957
-0.097052 0.413647 0.444842
0.291296 0.413996 0.445046
0.369708 0.414319 0.445212
0.414520 0.414638 0.445371
0.445395 0.414957 0.445530
0.467193 0.415386 0.445671
0.482114 0.416052 0.445767
0.494751 0.416725 0.445865
0.505975 0.417368 0.445970
-0.111921 0.444645 0.444909
0.291910 0.444897 0.445111
0.370139 0.445132 0.445276
0.414806 0.445363 0.445434
0.445594 0.445594 0.445594
0.465219 0.446022 0.445703
0.481301 0.446451 0.445815
0.494853 0.446882 0.445929
0.506510 0.447314 0.446045
-0.123400 0.467960 0.444993
0.292606 0.468154 0.445192
0.370599 0.468334 0.445357
0.415111 0.468513 0.445515
0.445805 0.468691 0.445675
0.468937 0.468870 0.445837
0.486250 0.469107 0.445984
0.499010 0.469447 0.446097
0.509745 0.469811 0.446205
-0.132722 0.486455 0.445099
0.293398 0.486611 0.445295
0.371096 0.486755 0.445459
0.415438 0.486898 0.445618
0.446034 0.487041 0.445777
0.469103 0.487185 0.445940
0.487441 0.487330 0.446106
0.502158 0.487496 0.446268
0.513766 0.487716 0.446410
-0.140543 0.501663 0.445227
0.294288 0.501791 0.445421
0.371629 0.501911 0.445585
0.415789 0.502028 0.445743
0.446279 0.502147 0.445903
0.469283 0.502265 0.446065
0.487577 0.502385 0.446231
0.502647 0.502506 0.446402
0.515186 0.502638 0.446571
-0.147259 0.514495 0.445378
0.295271 0.514603 0.445570
0.372200 0.514703 0.445733
0.416162 0.514803 0.445891
0.446542 0.514902 0.446050
0.469476 0.515003 0.446213
0.487723 0.515104 0.446379
0.502762 0.515206 0.446550
0.515473 0.515309 0.446724
0.053201 -0.050301 0.467798
0.287996 -0.051962 0.467967
0.367760 -0.054503 0.468100
0.413245 -0.057012 0.468226
0.444497 -0.059353 0.468353
0.467983 -0.061507 0.468482
0.486553 -0.063479 0.468613
0.501514 -0.065253 0.468742
0.513708 -0.066829 0.468865
-0.025858 0.290168 0.468045
0.289559 0.291230 0.468207
0.368616 0.292193 0.468334
0.413799 0.293135 0.468456
0.444889 0.294072 0.468578
0.468275 0.295010 0.468702
0.486743 0.295975 0.468828
0.501472 0.297101 0.468950
0.513321 0.298476 0.469061
-0.072999 0.368617 0.468108
0.290262 0.369155 0.468266
0.369099 0.369653 0.468393
0.414120 0.370142 0.468513
0.445112 0.370629 0.468634
0.468435 0.371118 0.468758
0.486785 0.371632 0.468882
0.501130 0.372278 0.468996
0.512447 0.373100 0.469094
-0.095190 0.413646 0.468141
0.290848 0.413994 0.468297
0.369524 0.414318 0.468423
0.414403 0.414637 0.468543
0.445307 0.414955 0.468664
0.468574 0.415275 0.468787
0.486679 0.415630 0.468908
0.500246 0.416140 0.469008
0.510781 0.416788 0.469088
-0.110511 0.444643 0.468177
0.291467 0.444895 0.468331
0.369957 0.445130 0.468456
0.414690 0.445361 0.468576
0.445506 0.445592 0.468697
0.468715 0.445824 0.468820
0.485963 0.446138 0.468929
0.498141 0.446626 0.469004
0.508691 0.447118 0.469079
-0.122245 0.467957 0.468226
0.292169 0.468151 0.468378
0.370418 0.468331 0.468503
0.414995 0.468510 0.468623
0.445718 0.468688 0.468743
0.468867 0.468867 0.468867
0.484353 0.469200 0.468951
0.497460 0.469535 0.469038
0.508775 0.469871 0.469127
-0.131732 0.486451 0.468293
0.292967 0.486607 0.468443
0.370916 0.486752 0.468567
0.415323 0.486894 0.468687
0.445947 0.487038 0.468808
0.469032 0.487181 0.468931
0.487381 0.487326 0.469057
0.501595 0.487519 0.469171
0.512314 0.487795 0.469260
-0.139669 0.501658 0.468377
0.293863 0.501786 0.468526
0.371451 0.501906 0.468650
0.415674 0.502024 0.468769
0.446193 0.502142 0.468890
0.469211 0.502261 0.469013
0.487516 0.502381 0.469140
0.502594 0.502501 0.469269
0.515006 0.502640 0.469396
-0.146472 0.514490 0.468480
0.294853 0.514598 0.468627
0.372023 0.514698 0.468751
0.416048 0.514798 0.468870
0.446456 0.514897 0.468991
0.469405 0.514998 0.469114
0.487662 0.515099 0.469240
0.502708 0.515201 0.469370
0.515425 0.515304 0.469503
0.057749 -0.054648 0.486409
0.287551 -0.056111 0.486544
0.367584 -0.058389 0.486649
0.413134 -0.060659 0.486748
0.444414 -0.062794 0.486848
0.467914 -0.064772 0.486949
0.486547 -0.066599 0.487053
0.501834 -0.068283 0.487160
0.514547 -0.069820 0.487266
-0.002509 0.290136 0.486599
0.289121 0.291199 0.486728
0.368440 0.292163 0.486828
0.413688 0.293106 0.486923
0.444806 0.294045 0.487019
0.468207 0.294984 0.487117
0.486772 0.295925 0.487217
0.501996 0.296883 0.487320
0.514582 0.297949 0.487421
-0.069978 0.368617 0.486635
0.289830 0.369156 0.486761
0.368924 0.369653 0.486860
0.414009 0.370142 0.486955
0.445029 0.370630 0.487050
0.468367 0.371119 0.487147
0.486889 0.371609 0.487246
0.502052 0.372114 0.487348
0.514456 0.372701 0.487445
-0.093324 0.413647 0.486646
0.290420 0.413996 0.486770
0.369351 0.414319 0.486868
0.414292 0.414638 0.486962
0.445224 0.414957 0.487057
0.468505 0.415276 0.487154
0.486989 0.415597 0.487254
0.502060 0.415935 0.487354
0.514140 0.416361 0.487446
-0.109115 0.444643 0.486659
0.291045 0.444895 0.486781
0.369784 0.445130 0.486879
0.414580 0.445361 0.486973
0.445423 0.445592 0.487068
0.468647 0.445824 0.487165
0.487090 0.446057 0.487264
0.501961 0.446317 0.487362
0.513374 0.446690 0.487443
-0.121108 0.467956 0.486683
0.291753 0.468149 0.486804
0.370247 0.468330 0.486902
0.414886 0.468508 0.486996
0.445635 0.468686 0.487090
0.468799 0.468865 0.487187
0.487201 0.469045 0.487287
0.501357 0.469290 0.487375
0.511574 0.469670 0.487436
-0.130761 0.486449 0.486722
0.292557 0.486604 0.486841
0.370746 0.486749 0.486939
0.415214 0.486892 0.487033
0.445864 0.487035 0.487127
0.468964 0.487179 0.487224
0.487324 0.487324 0.487324
0.500008 0.487595 0.487392
0.510994 0.487867 0.487462
-0.138814 0.501655 0.486776
0.293459 0.501783 0.486894
0.371282 0.501903 0.486991
0.415566 0.502021 0.487085
0.446111 0.502139 0.487180
0.469144 0.502258 0.487276
0.487458 0.502377 0.487376
0.502543 0.502498 0.487478
0.514524 0.502659 0.487571
-0.145702 0.514485 0.486845
0.294455 0.514594 0.486962
0.371856 0.514694 0.487059
0.415941 0.514794 0.487153
0.446375 0.514893 0.487247
0.469338 0.514994 0.487344
0.487604 0.515095 0.487444
0.502656 0.515197 0.487546
0.515379 0.515300 0.487651
0.061668 -0.058398 0.501717
0.287130 -0.059714 0.501828
0.367418 -0.061792 0.501912
0.413029 -0.063878 0.501992
0.444335 -0.065851 0.502072
0.467850 -0.067689 0.502154
0.486492 -0.069393 0.502239
0.501814 -0.070974 0.502325
0.514722 -0.072441 0.502414
0.025033 0.290114 0.501866
0.288706 0.291178 0.501971
0.368275 0.292143 0.502052
0.413583 0.293087 0.502129
0.444727 0.294027 0.502205
0.468143 0.294966 0.502284
0.486717 0.295909 0.502365
0.501991 0.296853 0.502449
0.514856 0.297810 0.502535
-0.066853 0.368622 0.501882
0.289420 0.369161 0.501985
0.368760 0.369658 0.502065
0.413904 0.370147 0.502140
0.444950 0.370635 0.502217
0.468303 0.371124 0.502295
0.486834 0.371615 0.502375
0.502077 0.372107 0.502458
0.514906 0.372609 0.502543
-0.091461 0.413651 0.501876
0.290016 0.414000 0.501977
0.369187 0.414324 0.502057
0.414188 0.414643 0.502132
0.445146 0.414961 0.502208
0.468442 0.415280 0.502286
0.486934 0.415602 0.502367
0.502148 0.415924 0.502450
0.514930 0.416257 0.502534
-0.107737 0.444645 0.501872
0.290646 0.444897 0.501972
0.369622 0.445132 0.502051
0.414477 0.445363 0.502126
0.445345 0.445594 0.502203
0.468583 0.445826 0.502281
0.487035 0.446059 0.502361
0.502222 0.446294 0.502444
0.514928 0.446541 0.502528
-0.119993 0.467956 0.501878
0.291359 0.468150 0.501976
0.370086 0.468330 0.502055
0.414783 0.468508 0.502131
0.445558 0.468686 0.502207
0.468735 0.468865 0.502285
0.487147 0.469046 0.502365
0.502303 0.469227 0.502448
0.514840 0.469429 0.502530
-0.129811 0.486448 0.501896
0.292169 0.486603 0.501994
0.370586 0.486748 0.502072
0.415112 0.486891 0.502148
0.445787 0.487034 0.502224
0.468901 0.487178 0.502302
0.487269 0.487322 0.502382
0.502394 0.487468 0.502465
0.514320 0.487667 0.502539
-0.137979 0.501653 0.501928
0.293077 0.501781 0.502024
0.371124 0.501900 0.502103
0.415464 0.502018 0.502178
0.446034 0.502137 0.502254
0.469081 0.502255 0.502332
0.487403 0.502375 0.502413
0.502496 0.502496 0.502496
0.513167 0.502723 0.502553
-0.144952 0.514483 0.501974
0.294080 0.514591 0.502068
0.371699 0.514691 0.502147
0.415839 0.514791 0.502222
0.446298 0.514890 0.502298
0.469275 0.514991 0.502376
0.487549 0.515092 0.502457
0.502608 0.515194 0.502540
0.515336 0.515297 0.502625
0.065104 -0.061688 0.514637
0.286732 -0.062891 0.514729
0.367263 -0.064812 0.514799
0.412932 -0.066750 0.514865
0.444262 -0.068593 0.514930
0.467791 -0.070316 0.514998
0.486440 -0.071919 0.515067
0.501768 -0.073411 0.515139
0.514697 -0.074801 0.515213
0.034708 0.290102 0.514755
0.288315 0.291168 0.514843
0.368120 0.292133 0.514909
0.413486 0.293078 0.514972
0.444654 0.294018 0.515035
0.468082 0.294959 0.515099
0.486665 0.295902 0.515166
0.501945 0.296848 0.515235
0.514839 0.297795 0.515306
-0.063610 0.368632 0.514756
0.289034 0.369170 0.514841
0.368606 0.369668 0.514907
0.413807 0.370157 0.514969
0.444877 0.370645 0.515032
0.468243 0.371134 0.515096
0.486782 0.371624 0.515162
0.502031 0.372117 0.515230
0.514902 0.372611 0.515301
-0.089602 0.413658 0.514737
0.289635 0.414007 0.514822
0.369035 0.414331 0.514887
0.414092 0.414650 0.514949
0.445073 0.414968 0.515011
0.468382 0.415287 0.515075
0.486882 0.415609 0.515141
0.502102 0.415931 0.515209
0.514952 0.416255 0.515280
-0.106379 0.444649 0.514721
0.290270 0.444901 0.514804
0.369471 0.445136 0.514869
0.414380 0.445367 0.514931
0.445273 0.445598 0.514993
0.468523 0.445830 0.515057
0.486984 0.446063 0.515123
0.502176 0.446298 0.515191
0.515004 0.446534 0.515262
-0.118900 0.467958 0.514713
0.290988 0.468151 0.514795
0.369936 0.468332 0.514860
0.414687 0.468510 0.514921
0.445485 0.468688 0.514984
0.468676 0.468867 0.515048
0.487095 0.469047 0.515114
0.502257 0.469229 0.515182
0.515063 0.469411 0.515253
-0.128884 0.486448 0.514716
0.291804 0.486603 0.514797
0.370437 0.486748 0.514862
0.415016 0.486891 0.514923
0.445715 0.487034 0.514986
0.468842 0.487178 0.515050
0.487218 0.487323 0.515116
0.502348 0.487469 0.515184
0.515131 0.487616 0.515255
-0.137167 0.501652 0.514731
0.292718 0.501780 0.514811
0.370976 0.501899 0.514876
0.415369 0.502017 0.514937
0.445962 0.502136 0.515000
0.469022 0.502254 0.515064
0.487352 0.502374 0.515130
0.502450 0.502495 0.515198
0.515208 0.502617 0.515269
-0.144223 0.514481 0.514758
0.293727 0.514589 0.514837
0.371552 0.514689 0.514901
0.415745 0.514789 0.514963
0.446226 0.514889 0.515025
0.469216 0.514989 0.515090
0.487499 0.515090 0.515156
0.502562 0.515192 0.515224
0.515295 0.515295 0.515295
