Sources/MetaVisGraphics/Resources/LUTs/aces13_hdr_rec2100pq1000_display_rrt_odt_33.cube
LUT_3D_SIZE 5
0.000001 0.000001 0.000001
0.350365 -0.016493 0.022753
0.425597 0.035448 0.034103
0.467975 0.062387 0.041839
0.496749 0.083718 0.047689
-0.085233 0.368594 -0.028613
0.369891 0.369616 -0.013318
0.442119 0.370831 0.024134
0.478801 0.372591 0.034471
0.503872 0.374465 0.041252
-0.116805 0.444636 -0.042184
0.370797 0.445124 -0.034630
0.445873 0.445571 -0.020408
0.486453 0.446072 0.018443
0.512198 0.446742 0.031198
-0.136234 0.486461 -0.051123
0.371758 0.486761 -0.045486
0.446358 0.487048 -0.036948
0.487635 0.487323 -0.025263
0.515043 0.487622 0.007952
-0.150094 0.514508 -0.057753
0.372864 0.514717 -0.053031
0.446870 0.514917 -0.046465
0.487953 0.515117 -0.038698
0.515629 0.515310 -0.028948
0.032613 -0.030689 0.367947
0.368336 -0.038230 0.368786
0.441058 -0.045288 0.369410
0.476532 -0.016083 0.369859
0.501551 0.067118 0.370312
-0.081397 0.368635 0.368878
0.369670 0.369670 0.369670
0.436104 0.371454 0.370130
0.474932 0.373250 0.370592
0.501819 0.375038 0.371074
-0.114720 0.444653 0.369175
0.370521 0.445139 0.369956
0.445774 0.445602 0.370634
0.485190 0.446213 0.371249
0.509290 0.447090 0.371735
-0.134716 0.486466 0.369606
0.371473 0.486766 0.370377
0.446217 0.487052 0.371057
0.487568 0.487341 0.371758
0.514748 0.487674 0.372455
-0.148858 0.514507 0.370233
0.372572 0.514715 0.370995
0.446725 0.514915 0.371675
0.487851 0.515116 0.372377
0.515575 0.515321 0.373112
0.047800 -0.045145 0.444345
0.367947 -0.049996 0.444740
0.444585 -0.055439 0.445074
0.485929 -0.059898 0.445405
0.511409 -0.058629 0.445690
-0.075920 0.368621 0.444779
0.369284 0.369656 0.445152
0.445200 0.370633 0.445471
0.484622 0.371949 0.445756
0.507768 0.373981 0.445957
-0.111921 0.444645 0.444909
0.370139 0.445132 0.445276
0.445594 0.445594 0.445594
0.481301 0.446451 0.445815
0.506510 0.447314 0.446045
-0.132722 0.486455 0.445099
0.371096 0.486755 0.445459
0.446034 0.487041 0.445777
0.487441 0.487330 0.446106
0.513766 0.487716 0.446410
-0.147259 0.514495 0.445378
0.372200 0.514703 0.445733
0.446542 0.514902 0.446050
0.487723 0.515104 0.446379
0.515473 0.515309 0.446724
0.057749 -0.054648 0.486409
0.367584 -0.058389 0.486649
0.444414 -0.062794 0.486848
0.486547 -0.066599 0.487053
0.514547 -0.069820 0.487266
-0.069978 0.368617 0.486635
0.368924 0.369653 0.486860
0.445029 0.370630 0.487050
0.486889 0.371609 0.487246
0.514456 0.372701 0.487445
-0.109115 0.444643 0.486659
0.369784 0.445130 0.486879
0.445423 0.445592 0.487068
0.487090 0.446057 0.487264
0.513374 0.446690 0.487443
-0.130761 0.486449 0.486722
0.370746 0.486749 0.486939
0.445864 0.487035 0.487127
0.487324 0.487324 0.487324
0.510994 0.487867 0.487462
-0.145702 0.514485 0.486845
0.371856 0.514694 0.487059
0.446375 0.514893 0.487247
0.487604 0.515095 0.487444
0.515379 0.515300 0.487651
0.065104 -0.061688 0.514637
0.367263 -0.064812 0.514799
0.444262 -0.068593 0.514930
0.486440 -0.071919 0.515067
0.514697 -0.074801 0.515213
-0.063610 0.368632 0.514756
0.368606 0.369668 0.514907
0.444877 0.370645 0.515032
0.486782 0.371624 0.515162
0.514902 0.372611 0.515301
-0.106379 0.444649 0.514721
0.369471 0.445136 0.514869
0.445273 0.445598 0.514993
0.486984 0.446063 0.515123
0.515004 0.446534 0.515262
-0.128884 0.486448 0.514716
0.370437 0.486748 0.514862
0.445715 0.487034 0.514986
0.487218 0.487323 0.515116
0.515131 0.487616 0.515255
-0.144223 0.514481 0.514758
0.371552 0.514689 0.514901
0.446226 0.514889 0.515025
0.487499 0.515090 0.515156
0.515295 0.515295 0.515295
