Sources/MetaVisGraphics/Resources/LUTs/aces13_sdr_srgb_display_rrt_odt_33.cube
LUT_3D_SIZE 9
0.000000 0.000000 0.000000
0.313491 -0.065846 -0.002107
0.495661 -0.170683 -0.004571
0.631426 -0.287392 -0.006040
0.732737 -0.398215 -0.007112
0.812428 -0.499723 -0.007796
0.874931 -0.587745 -0.007698
0.922571 -0.659014 -0.006685
0.959397 -0.715924 -0.004806
-0.411874 0.286484 -0.055618
0.281084 0.272204 -0.055478
0.509520 0.248970 -0.056747
0.641163 0.228199 -0.058765
0.735759 0.208464 -0.060310
0.810633 0.188920 -0.061213
0.868699 0.171092 -0.061261
0.913365 0.155956 -0.060483
0.948121 0.143761 -0.059008
-1.123997 0.464795 -0.148881
0.098397 0.458471 -0.149800
0.459645 0.446054 -0.151387
0.623979 0.433471 -0.152093
0.729997 0.423124 -0.152351
0.804922 0.415145 -0.152240
0.858831 0.409451 -0.151588
0.899665 0.405398 -0.150324
0.931414 0.402629 -0.148449
-1.863584 0.587118 -0.245092
-0.581366 0.582197 -0.245301
0.386787 0.572988 -0.246839
0.580182 0.563408 -0.246693
0.702689 0.554767 -0.245608
0.786695 0.547886 -0.243982
0.843966 0.543104 -0.241805
0.884858 0.539962 -0.239210
0.915229 0.538026 -0.236240
-2.538888 0.675988 -0.331100
-1.222939 0.671664 -0.330579
0.302139 0.663906 -0.331410
0.532880 0.655946 -0.331983
0.667663 0.648587 -0.330025
0.759728 0.642405 -0.327253
0.822077 0.637882 -0.323704
0.865827 0.634768 -0.319621
0.897643 0.632740 -0.315193
-3.117878 0.742016 -0.402701
-1.767164 0.737926 -0.401563
0.198219 0.730900 -0.401720
0.488318 0.723753 -0.401773
0.634598 0.717169 -0.400482
0.732309 0.711532 -0.396789
0.798790 0.707203 -0.392126
0.845454 0.704045 -0.386772
0.879339 0.701814 -0.380967
-3.572169 0.789345 -0.456243
-2.186514 0.785343 -0.454511
0.007254 0.778729 -0.454025
0.450295 0.772048 -0.453409
0.607537 0.765901 -0.452325
0.709437 0.760647 -0.448839
0.778512 0.756531 -0.443366
0.827309 0.753409 -0.437058
0.862969 0.751086 -0.430159
-3.922654 0.823932 -0.494595
-2.502525 0.819955 -0.492306
-0.302440 0.813594 -0.491224
0.418859 0.807210 -0.490007
0.586022 0.801336 -0.488337
0.691387 0.796332 -0.485998
0.762134 0.792392 -0.480125
0.812196 0.789350 -0.473071
0.849093 0.787008 -0.465317
-4.194211 0.849945 -0.521183
-2.740475 0.845974 -0.518424
-0.534290 0.839795 -0.516841
0.393129 0.833630 -0.515103
0.569037 0.827960 -0.512912
0.677100 0.823141 -0.510047
0.749172 0.819346 -0.505839
0.799957 0.816399 -0.498159
0.837572 0.814093 -0.489733
-0.057356 -0.004711 0.282394
0.331577 -0.082016 0.278321
0.535163 -0.211132 0.276732
0.656071 -0.322355 0.276632
0.746963 -0.424738 0.276901
0.821066 -0.520324 0.277431
0.879878 -0.603364 0.278194
0.925444 -0.671327 0.279160
0.961029 -0.725956 0.280281
-0.460862 0.283327 0.270359
0.270810 0.270810 0.270810
0.485824 0.252516 0.270915
0.624197 0.232162 0.271147
0.725283 0.211630 0.271573
0.804144 0.191291 0.272157
0.864592 0.172821 0.272916
0.910521 0.157309 0.273833
0.945935 0.144955 0.274875
-1.181384 0.464564 0.255013
0.065689 0.458227 0.256604
0.454561 0.445851 0.257680
0.615710 0.434079 0.258604
0.715386 0.425371 0.259281
0.789966 0.418131 0.259972
0.846526 0.412390 0.260808
0.890010 0.408068 0.261784
0.923853 0.405008 0.262878
-1.922058 0.586921 0.240176
-0.637671 0.581987 0.242055
0.380202 0.572778 0.243459
0.576287 0.563240 0.244870
0.698510 0.554805 0.246299
0.780301 0.548445 0.247594
0.835762 0.544232 0.248794
0.876193 0.541461 0.249971
0.907188 0.539654 0.251195
-2.598470 0.675795 0.226743
-1.280410 0.671461 0.228854
0.293030 0.663700 0.230504
0.528316 0.655746 0.232151
0.664299 0.648424 0.233901
0.756485 0.642332 0.235730
0.818075 0.638015 0.237538
0.860942 0.635162 0.239255
0.892060 0.633398 0.240874
-3.178545 0.741809 0.215763
-1.825755 0.737708 0.218092
0.182812 0.730680 0.219966
0.483107 0.723535 0.221834
0.630842 0.716959 0.223798
0.729193 0.711349 0.225905
0.795829 0.707069 0.228137
0.842220 0.704005 0.230362
0.875659 0.701905 0.232503
-3.633961 0.789122 0.208516
-2.246289 0.785111 0.211017
-0.052766 0.778494 0.213067
0.444408 0.771813 0.215112
0.603439 0.765667 0.217248
0.706060 0.760425 0.219527
0.775512 0.756329 0.221977
0.824440 0.753236 0.224519
0.860005 0.750964 0.227044
-3.985614 0.823695 0.204663
-2.563527 0.819709 0.207282
-0.363708 0.813346 0.209461
0.412279 0.806962 0.211637
0.581646 0.801089 0.213900
0.687766 0.796086 0.216306
0.758941 0.792158 0.218879
0.809244 0.789130 0.221580
0.846254 0.786807 0.224335
-4.258394 0.849700 0.203532
-2.802762 0.845720 0.206219
-0.596873 0.839539 0.208480
0.385856 0.833374 0.210740
0.564400 0.827705 0.213085
0.673307 0.822886 0.215572
0.745790 0.819093 0.218222
0.796850 0.816157 0.220999
0.834640 0.813862 0.223857
-0.159263 -0.013082 0.461350
0.315924 -0.089839 0.458617
0.538411 -0.228589 0.456681
0.682360 -0.367764 0.456054
0.777920 -0.482720 0.455988
0.845489 -0.574307 0.456138
0.895709 -0.646876 0.456466
0.935002 -0.705589 0.456948
0.966330 -0.753058 0.457556
-0.559795 0.281476 0.453306
0.252576 0.269563 0.453449
0.507860 0.245027 0.453092
0.653237 0.219695 0.453000
0.742962 0.200414 0.452975
0.813481 0.181945 0.453100
0.868928 0.164925 0.453420
0.912212 0.150261 0.453902
0.946148 0.138383 0.454507
-1.281301 0.463929 0.444069
-0.026561 0.457590 0.444861
0.445225 0.445225 0.445225
0.594198 0.435648 0.445387
0.699044 0.426806 0.445656
0.779214 0.418890 0.446028
0.839272 0.412573 0.446525
0.884691 0.407854 0.447130
0.919604 0.404527 0.447820
-2.021326 0.586433 0.436146
-0.734483 0.581493 0.437147
0.368598 0.572291 0.437792
0.569401 0.562759 0.438471
0.689191 0.554834 0.439128
0.766452 0.549424 0.439650
0.821971 0.545538 0.440214
0.864471 0.542652 0.440863
0.897577 0.540606 0.441589
-2.697336 0.675369 0.429655
-1.376839 0.671028 0.430758
0.277025 0.663272 0.431550
0.520650 0.655323 0.432358
0.658551 0.648005 0.433248
0.750705 0.642025 0.434187
0.810771 0.638025 0.435078
0.852344 0.635516 0.435902
0.883092 0.633968 0.436703
-3.277101 0.741401 0.424784
-1.921887 0.737294 0.425956
0.154120 0.730268 0.426844
0.474544 0.723127 0.427744
0.624715 0.716555 0.428715
0.724064 0.710949 0.429785
0.790926 0.706704 0.430933
0.836857 0.703754 0.432061
0.869644 0.701807 0.433129
-3.732322 0.788721 0.421876
-2.342272 0.784703 0.423090
-0.148679 0.778087 0.424039
0.434902 0.771411 0.424999
0.596964 0.765267 0.426023
0.700718 0.760028 0.427143
0.770743 0.755935 0.428372
0.819890 0.752857 0.429661
0.855321 0.750633 0.430936
-4.083871 0.823296 0.420573
-2.659460 0.819304 0.421809
-0.459584 0.812942 0.422797
0.401828 0.806561 0.423795
0.574862 0.800690 0.424855
0.682243 0.795691 0.426008
0.754038 0.791765 0.427266
0.804703 0.788739 0.428608
0.841895 0.786423 0.429988
-4.356643 0.849304 0.420472
-2.898744 0.845318 0.421717
-0.692817 0.839139 0.422726
0.374485 0.832977 0.423747
0.557345 0.827309 0.424827
0.667629 0.822494 0.425998
0.740774 0.818703 0.427273
0.792215 0.815768 0.428629
0.830258 0.813475 0.430041
-0.265884 -0.021840 0.584270
0.299723 -0.098468 0.581613
0.530206 -0.236768 0.579101
0.678909 -0.378792 0.577865
0.784870 -0.507903 0.577349
0.860307 -0.614034 0.577239
0.911749 -0.691942 0.577376
0.948365 -0.748591 0.577627
0.976069 -0.790919 0.577954
-0.664664 0.280175 0.576712
0.231908 0.268265 0.576293
0.499275 0.243685 0.575346
0.655847 0.215246 0.574793
0.764034 0.186320 0.574592
0.837370 0.162062 0.574564
0.886691 0.144945 0.574634
0.923603 0.132315 0.574794
0.952798 0.122835 0.575047
-1.384669 0.463269 0.568248
-0.127336 0.456929 0.568520
0.435337 0.444577 0.568365
0.611400 0.431538 0.568323
0.722392 0.420727 0.568382
0.792709 0.414051 0.568402
0.845548 0.409018 0.568532
0.887191 0.405096 0.568783
0.920085 0.402248 0.569132
-2.123353 0.585929 0.561414
-0.833792 0.580984 0.561909
0.356246 0.571790 0.562064
0.562267 0.562267 0.562267
0.671564 0.555853 0.562376
0.752991 0.550257 0.562568
0.812886 0.545896 0.562861
0.857987 0.542655 0.563239
0.892563 0.540371 0.563685
-2.798300 0.674932 0.555961
-1.475113 0.670586 0.556560
0.259566 0.662835 0.556869
0.512729 0.654893 0.557206
0.652672 0.647581 0.557631
0.742786 0.641963 0.558074
0.799346 0.638611 0.558453
0.840843 0.636322 0.558860
0.873078 0.634699 0.559325
-3.377118 0.740988 0.551879
-2.019240 0.736874 0.552542
0.118050 0.729852 0.552947
0.465716 0.722716 0.553372
0.618478 0.716149 0.553871
0.718872 0.710547 0.554467
0.785618 0.706382 0.555133
0.830357 0.703653 0.555766
0.862018 0.701953 0.556353
-3.831538 0.788316 0.549344
-2.438874 0.784293 0.550043
-0.244982 0.777680 0.550507
0.425113 0.771008 0.550988
0.590403 0.764868 0.551536
0.695339 0.759634 0.552175
0.765960 0.755544 0.552916
0.815241 0.752493 0.553714
0.850280 0.750353 0.554496
-4.182407 0.822897 0.548038
-2.755453 0.818899 0.548757
-0.555294 0.812539 0.549258
0.391075 0.806163 0.549776
0.568018 0.800295 0.550356
0.676709 0.795300 0.551023
0.749144 0.791377 0.551789
0.800185 0.788353 0.552633
0.837531 0.786049 0.553514
-4.454622 0.848910 0.547640
-2.994245 0.844919 0.548368
-0.788063 0.838741 0.548891
0.362788 0.832583 0.549432
0.550256 0.826919 0.550032
0.661965 0.822108 0.550717
0.735791 0.818320 0.551498
0.787624 0.815388 0.552353
0.825928 0.813096 0.553263
-0.364187 -0.029915 0.673811
0.283958 -0.106423 0.671248
0.522541 -0.244325 0.668478
0.673329 -0.386160 0.666894
0.781135 -0.516451 0.666041
0.860834 -0.628931 0.665654
0.916421 -0.714867 0.665610
0.955535 -0.777884 0.665752
0.983764 -0.823259 0.665986
-0.761761 0.279030 0.666533
0.210806 0.267108 0.665802
0.491202 0.242480 0.664514
0.650123 0.213933 0.663629
0.761415 0.183772 0.663131
0.842459 0.153657 0.662932
0.897595 0.128628 0.662949
0.935610 0.110548 0.663061
0.962883 0.099477 0.663211
-1.480417 0.462689 0.658292
-0.220374 0.456345 0.658256
0.425967 0.444003 0.657786
0.605289 0.430973 0.657441
0.724672 0.418750 0.657288
0.808879 0.408494 0.657302
0.863421 0.402113 0.657398
0.900519 0.398769 0.657505
0.928546 0.397000 0.657651
-2.217768 0.585482 0.651793
-0.925413 0.580532 0.651993
0.344387 0.571345 0.651853
0.555581 0.561830 0.651769
0.685345 0.553029 0.651807
0.770655 0.546358 0.651916
0.822617 0.542903 0.651993
0.862302 0.540468 0.652138
0.893993 0.538673 0.652362
-2.891628 0.674543 0.646659
-1.565682 0.670191 0.646968
0.242198 0.662444 0.646993
0.505300 0.654510 0.647051
0.647202 0.647202 0.647202
0.729130 0.642660 0.647297
0.788675 0.639148 0.647479
0.833351 0.636527 0.647732
0.867524 0.634660 0.648043
-3.469454 0.740616 0.642793
-2.108849 0.736497 0.643167
0.071466 0.729477 0.643292
0.457410 0.722347 0.643442
0.612672 0.715784 0.643668
0.714055 0.710187 0.643994
0.779126 0.706276 0.644361
0.821111 0.703997 0.644675
0.852505 0.702458 0.645006
-3.923018 0.787951 0.640293
-2.527689 0.783922 0.640705
-0.333426 0.777311 0.640891
0.415872 0.770643 0.641099
0.584295 0.764508 0.641375
0.690349 0.759278 0.641743
0.761531 0.755190 0.642213
0.810649 0.752197 0.642732
0.844673 0.750223 0.643222
-4.273146 0.822534 0.638862
-2.843597 0.818531 0.639296
-0.643091 0.812173 0.639521
0.380882 0.805800 0.639767
0.561645 0.799936 0.640076
0.671579 0.794945 0.640472
0.744614 0.791026 0.640964
0.796007 0.788004 0.641532
0.833415 0.785720 0.642135
-4.544746 0.848551 0.638214
-3.081840 0.844556 0.638658
-0.875351 0.838380 0.638907
0.351653 0.832225 0.639177
0.543657 0.826564 0.639505
0.656717 0.821756 0.639918
0.731182 0.817972 0.640423
0.783382 0.815043 0.641000
0.821931 0.812752 0.641630
-0.450226 -0.036983 0.741145
0.269429 -0.113363 0.738600
0.515791 -0.250914 0.735649
0.668446 -0.392602 0.733797
0.777102 -0.522791 0.732669
0.857615 -0.635727 0.732015
0.915134 -0.724729 0.731732
0.956411 -0.792189 0.731686
0.986387 -0.842041 0.731777
-0.846834 0.278102 0.733915
0.190325 0.266161 0.732936
0.484059 0.241491 0.731376
0.645106 0.212857 0.730218
0.757307 0.182554 0.729453
0.839511 0.151727 0.729002
0.897791 0.123128 0.728824
0.939029 0.098758 0.728814
0.968509 0.080422 0.728889
-1.564192 0.462227 0.725614
-0.301252 0.455877 0.725318
0.417632 0.443544 0.724581
0.599930 0.430523 0.723973
0.720400 0.418305 0.723564
0.806758 0.407649 0.723349
0.867118 0.399492 0.723317
0.908782 0.394181 0.723383
0.937936 0.391389 0.723476
-2.300136 0.585123 0.719086
-1.004838 0.580167 0.719031
0.333722 0.570986 0.718633
0.549721 0.561480 0.718295
0.680849 0.552686 0.718084
0.772243 0.545136 0.718013
0.834674 0.539545 0.718075
0.875828 0.536332 0.718167
0.904208 0.534883 0.718250
-2.972784 0.674228 0.713908
-1.643942 0.669870 0.713965
0.226001 0.662127 0.713736
0.498791 0.654199 0.713544
0.642439 0.646897 0.713448
0.739263 0.640664 0.713466
0.801694 0.636456 0.713557
0.840519 0.634469 0.713613
0.870617 0.633153 0.713712
-3.549451 0.740310 0.709936
-2.185993 0.736185 0.710058
0.002875 0.729168 0.709931
0.450132 0.722043 0.709832
0.607638 0.715485 0.709812
0.709892 0.709892 0.709892
0.768725 0.706740 0.709962
0.812768 0.704342 0.710093
0.846457 0.702572 0.710274
-4.001976 0.787647 0.707229
-2.603854 0.783613 0.707388
-0.409072 0.777004 0.707323
0.407768 0.770341 0.707282
0.579012 0.764208 0.707310
0.686049 0.758984 0.707431
0.757721 0.754900 0.707654
0.805494 0.752091 0.707909
0.837214 0.750451 0.708126
-4.351165 0.822231 0.705499
-2.918895 0.818222 0.705679
-0.717899 0.811866 0.705653
0.371935 0.805497 0.705649
0.556150 0.799637 0.705710
0.667172 0.794650 0.705859
0.740732 0.790734 0.706105
0.792432 0.787715 0.706426
0.829652 0.785475 0.706780
-4.621940 0.848251 0.704480
-3.156381 0.844250 0.704670
-0.949435 0.838076 0.704668
0.341864 0.831925 0.704688
0.537983 0.826268 0.704770
0.652224 0.821464 0.704937
0.727244 0.817683 0.705197
0.779763 0.814756 0.705529
0.818525 0.812468 0.705914
-0.519105 -0.042641 0.789798
0.257292 -0.118891 0.787246
0.510399 -0.256171 0.784179
0.664564 -0.397735 0.782144
0.773899 -0.527836 0.780823
0.854776 -0.640640 0.779978
0.912663 -0.729796 0.779512
0.954890 -0.798869 0.779295
0.986107 -0.851448 0.779240
-0.915102 0.277463 0.782552
0.172184 0.265499 0.781400
0.478316 0.240800 0.779653
0.641100 0.212111 0.778304
0.754032 0.181716 0.777350
0.836618 0.150758 0.776716
0.895387 0.121684 0.776362
0.938064 0.094840 0.776203
0.969349 0.071292 0.776167
-1.631440 0.461923 0.774157
-0.365480 0.455565 0.773676
0.410886 0.443240 0.772748
0.595642 0.430228 0.771954
0.716990 0.418016 0.771363
0.803781 0.407367 0.770971
0.864906 0.399055 0.770773
0.908963 0.392879 0.770717
0.940828 0.388796 0.770741
-2.366148 0.584882 0.767540
-1.067839 0.579918 0.767304
0.324990 0.570741 0.766722
0.545029 0.561243 0.766204
0.677260 0.552456 0.765817
0.769159 0.544913 0.765573
0.833089 0.539084 0.765481
0.878688 0.534817 0.765498
0.910921 0.532169 0.765562
-3.037712 0.674010 0.762266
-1.705923 0.669645 0.762145
0.212223 0.661905 0.761738
0.493570 0.653983 0.761371
0.638638 0.646687 0.761102
0.736056 0.640459 0.760950
0.802908 0.635647 0.760924
0.849747 0.632200 0.760984
0.881383 0.630318 0.761053
-3.613324 0.740090 0.758167
-2.246975 0.735959 0.758113
-0.057517 0.728943 0.757812
0.444285 0.721823 0.757540
0.603623 0.715269 0.757350
0.706568 0.709681 0.757261
0.776241 0.705337 0.757285
0.822593 0.702463 0.757358
0.852084 0.701126 0.757400
-4.064898 0.787422 0.755278
-2.663956 0.783381 0.755263
-0.468606 0.776774 0.755025
0.401242 0.770114 0.754814
0.574802 0.763986 0.754674
0.682624 0.758765 0.754628
0.754685 0.754685 0.754685
0.797701 0.752424 0.754735
0.830751 0.750704 0.754828
-4.413229 0.822001 0.753318
-2.978220 0.817987 0.753325
-0.776689 0.811632 0.753128
0.364706 0.805266 0.752956
0.551772 0.799409 0.752850
0.663665 0.794426 0.752832
0.737639 0.790514 0.752912
0.789581 0.787498 0.753069
0.825670 0.785397 0.753247
-4.683265 0.848021 0.752029
-3.215036 0.844015 0.752048
-1.007597 0.837841 0.751877
0.333926 0.831693 0.751731
0.533462 0.826039 0.751647
0.648650 0.821239 0.751650
0.724109 0.817462 0.751745
0.776879 0.814538 0.751914
0.815811 0.812251 0.752135
-0.573418 -0.047102 0.825561
0.247417 -0.123213 0.823000
0.506189 -0.260297 0.819862
0.661543 -0.401755 0.817704
0.771405 -0.531780 0.816251
0.852559 -0.644449 0.815275
0.910605 -0.733474 0.814680
0.953011 -0.802586 0.814337
0.984749 -0.856108 0.814164
-0.969110 0.277063 0.818296
0.156488 0.265077 0.817027
0.473796 0.240362 0.815154
0.637961 0.211647 0.813672
0.751465 0.181204 0.812588
0.834346 0.150178 0.811826
0.893283 0.121009 0.811347
0.936188 0.093835 0.811068
0.968226 0.068349 0.810924
-1.684700 0.461752 0.809828
-0.415649 0.455384 0.809217
0.405543 0.443064 0.808156
0.592275 0.430063 0.807232
0.714314 0.417859 0.806515
0.801440 0.407219 0.805998
0.862751 0.398914 0.805679
0.907133 0.392666 0.805507
0.940157 0.388101 0.805436
-2.418366 0.584738 0.803131
-1.117010 0.579766 0.802768
0.318001 0.570593 0.802058
0.541340 0.561101 0.801414
0.674443 0.552320 0.800903
0.766734 0.544784 0.800538
0.830875 0.538961 0.800327
0.877007 0.534603 0.800231
0.911176 0.531431 0.800217
-3.089001 0.673873 0.797772
-1.754245 0.669500 0.797527
0.200791 0.661763 0.796995
0.489462 0.653846 0.796505
0.635656 0.646554 0.796115
0.733535 0.640333 0.795843
0.800627 0.635526 0.795700
0.848549 0.631916 0.795655
0.883795 0.629293 0.795678
-3.663684 0.739941 0.793569
-2.294433 0.735802 0.793392
-0.104346 0.728788 0.792968
0.439678 0.721672 0.792575
0.600475 0.715122 0.792265
0.703958 0.709538 0.792059
0.773901 0.705198 0.791966
0.823523 0.701903 0.791961
0.859512 0.699524 0.792011
-4.114415 0.787262 0.790541
-2.710644 0.783215 0.790404
-0.514700 0.776608 0.790045
0.396091 0.769952 0.789714
0.571503 0.763826 0.789455
0.679937 0.758610 0.789293
0.752294 0.754533 0.789233
0.803322 0.751410 0.789256
0.838556 0.749324 0.789310
-4.461989 0.821833 0.788410
-3.024234 0.817813 0.788297
-0.822150 0.811458 0.787980
0.358987 0.805095 0.787689
0.548344 0.799241 0.787466
0.660915 0.794262 0.787333
0.735210 0.790353 0.787297
0.787339 0.787339 0.787339
0.819636 0.785654 0.787373
-4.731379 0.847849 0.786928
-3.260470 0.843837 0.786827
-1.052526 0.837664 0.786537
0.327626 0.831519 0.786274
0.529924 0.825868 0.786074
0.645851 0.821071 0.785961
0.721649 0.817297 0.785941
0.774612 0.814375 0.785995
0.813675 0.812090 0.786103
-0.616268 -0.050608 0.852414
0.239466 -0.126575 0.849854
0.502922 -0.263530 0.846678
0.659201 -0.404901 0.844446
0.769468 -0.534854 0.842910
0.850829 -0.647390 0.841850
0.908994 -0.736292 0.841173
0.951474 -0.805290 0.840751
0.983306 -0.858804 0.840499
-1.011931 0.276851 0.845154
0.143021 0.264843 0.843812
0.470253 0.240123 0.841861
0.635508 0.211404 0.840297
0.749457 0.180946 0.839130
0.832560 0.149903 0.838286
0.891623 0.120708 0.837730
0.934608 0.093496 0.837373
0.966764 0.067794 0.837155
-1.727023 0.461684 0.836657
-0.454849 0.455304 0.835964
0.401325 0.442990 0.834819
0.589632 0.429998 0.833812
0.712212 0.417804 0.833014
0.799593 0.407174 0.832420
0.861046 0.398878 0.832025
0.905516 0.392637 0.831778
0.938701 0.388034 0.831635
-2.459844 0.584671 0.829924
-1.155440 0.579688 0.829480
0.312434 0.570518 0.828689
0.538440 0.561033 0.827965
0.672229 0.552258 0.827376
0.764820 0.544730 0.826936
0.829121 0.538912 0.826651
0.875351 0.534559 0.826482
0.909759 0.531343 0.826399
-3.129725 0.673799 0.824524
-1.792008 0.669417 0.824201
0.191373 0.661681 0.823590
0.486225 0.653769 0.823023
0.633310 0.646482 0.822558
0.731544 0.640266 0.822213
0.798819 0.635464 0.821997
0.846850 0.631858 0.821882
0.882499 0.629170 0.821838
-3.703631 0.739847 0.820270
-2.331486 0.735701 0.820017
-0.140772 0.728687 0.819516
0.436043 0.721574 0.819048
0.597998 0.715027 0.818665
0.701896 0.709448 0.818386
0.772046 0.705111 0.818222
0.821788 0.701819 0.818147
0.858617 0.699323 0.818136
-4.153656 0.787153 0.817168
-2.747077 0.783097 0.816956
-0.550542 0.776491 0.816522
0.392017 0.769837 0.816118
0.568907 0.763715 0.815787
0.677814 0.758503 0.815553
0.750400 0.754428 0.815424
0.801558 0.751308 0.815377
0.839362 0.748910 0.815389
-4.500609 0.821712 0.814943
-3.060127 0.817684 0.814756
-0.857496 0.811329 0.814366
0.354450 0.804969 0.814003
0.545644 0.799118 0.813709
0.658743 0.794142 0.813506
0.733283 0.790236 0.813401
0.785552 0.787224 0.813374
0.824126 0.784884 0.813404
-4.769478 0.847722 0.813352
-3.295917 0.843704 0.813178
-1.087476 0.837530 0.812817
0.322609 0.831388 0.812483
0.527134 0.825739 0.812213
0.643636 0.820946 0.812031
0.719696 0.817174 0.811944
0.772805 0.814255 0.811930
0.811971 0.811971 0.811971
