Sources/MetaVisGraphics/Resources/LUTs/aces13_sdr_srgb_display_rrt_odt_33.cube
LUT_3D_SIZE 5
0.000000 0.000000 0.000000
0.495661 -0.170683 -0.004571
0.732737 -0.398215 -0.007112
0.874931 -0.587745 -0.007698
0.959397 -0.715924 -0.004806
-1.123997 0.464795 -0.148881
0.459645 0.446054 -0.151387
0.729997 0.423124 -0.152351
0.858831 0.409451 -0.151588
0.931414 0.402629 -0.148449
-2.538888 0.675988 -0.331100
0.302139 0.663906 -0.331410
0.667663 0.648587 -0.330025
0.822077 0.637882 -0.323704
0.897643 0.632740 -0.315193
-3.572169 0.789345 -0.456243
0.007254 0.778729 -0.454025
0.607537 0.765901 -0.452325
0.778512 0.756531 -0.443366
0.862969 0.751086 -0.430159
-4.194211 0.849945 -0.521183
-0.534290 0.839795 -0.516841
0.569037 0.827960 -0.512912
0.749172 0.819346 -0.505839
0.837572 0.814093 -0.489733
-0.159263 -0.013082 0.461350
0.538411 -0.228589 0.456681
0.777920 -0.482720 0.455988
0.895709 -0.646876 0.456466
0.966330 -0.753058 0.457556
-1.281301 0.463929 0.444069
0.445225 0.445225 0.445225
0.699044 0.426806 0.445656
0.839272 0.412573 0.446525
0.919604 0.404527 0.447820
-2.697336 0.675369 0.429655
0.277025 0.663272 0.431550
0.658551 0.648005 0.433248
0.810771 0.638025 0.435078
0.883092 0.633968 0.436703
-3.732322 0.788721 0.421876
-0.148679 0.778087 0.424039
0.596964 0.765267 0.426023
0.770743 0.755935 0.428372
0.855321 0.750633 0.430936
-4.356643 0.849304 0.420472
-0.692817 0.839139 0.422726
0.557345 0.827309 0.424827
0.740774 0.818703 0.427273
0.830258 0.813475 0.430041
-0.364187 -0.029915 0.673811
0.522541 -0.244325 0.668478
0.781135 -0.516451 0.666041
0.916421 -0.714867 0.665610
0.983764 -0.823259 0.665986
-1.480417 0.462689 0.658292
0.425967 0.444003 0.657786
0.724672 0.418750 0.657288
0.863421 0.402113 0.657398
0.928546 0.397000 0.657651
-2.891628 0.674543 0.646659
0.242198 0.662444 0.646993
0.647202 0.647202 0.647202
0.788675 0.639148 0.647479
0.867524 0.634660 0.648043
-3.923018 0.787951 0.640293
-0.333426 0.777311 0.640891
0.584295 0.764508 0.641375
0.761531 0.755190 0.642213
0.844673 0.750223 0.643222
-4.544746 0.848551 0.638214
-0.875351 0.838380 0.638907
0.543657 0.826564 0.639505
0.731182 0.817972 0.640423
0.821931 0.812752 0.641630
-0.519105 -0.042641 0.789798
0.510399 -0.256171 0.784179
0.773899 -0.527836 0.780823
0.912663 -0.729796 0.779512
0.986107 -0.851448 0.779240
-1.631440 0.461923 0.774157
0.410886 0.443240 0.772748
0.716990 0.418016 0.771363
0.864906 0.399055 0.770773
0.940828 0.388796 0.770741
-3.037712 0.674010 0.762266
0.212223 0.661905 0.761738
0.638638 0.646687 0.761102
0.802908 0.635647 0.760924
0.881383 0.630318 0.761053
-4.064898 0.787422 0.755278
-0.468606 0.776774 0.755025
0.574802 0.763986 0.754674
0.754685 0.754685 0.754685
0.830751 0.750704 0.754828
-4.683265 0.848021 0.752029
-1.007597 0.837841 0.751877
0.533462 0.826039 0.751647
0.724109 0.817462 0.751745
0.815811 0.812251 0.752135
-0.616268 -0.050608 0.852414
0.502922 -0.263530 0.846678
0.769468 -0.534854 0.842910
0.908994 -0.736292 0.841173
0.983306 -0.858804 0.840499
-1.727023 0.461684 0.836657
0.401325 0.442990 0.834819
0.712212 0.417804 0.833014
0.861046 0.398878 0.832025
0.938701 0.388034 0.831635
-3.129725 0.673799 0.824524
0.191373 0.661681 0.823590
0.633310 0.646482 0.822558
0.798819 0.635464 0.821997
0.882499 0.629170 0.821838
-4.153656 0.787153 0.817168
-0.550542 0.776491 0.816522
0.568907 0.763715 0.815787
0.750400 0.754428 0.815424
0.839362 0.748910 0.815389
-4.769478 0.847722 0.813352
-1.087476 0.837530 0.812817
0.527134 0.825739 0.812213
0.719696 0.817174 0.811944
0.811971 0.811971 0.811971
