Sources/MetaVisGraphics/Resources/LUTs/aces13_hdr_rec2100pq1000_display_rrt_odt_33.cube
LUT_3D_SIZE 33
0.000001 0.000001 0.000001
0.159399 -0.004908 0.005265
0.213152 -0.008189 0.008765
0.250745 -0.011070 0.011828
0.278532 -0.013538 0.014448
0.301067 -0.015766 0.016808
0.319961 -0.017796 0.018957
0.336184 -0.018276 0.020929
0.350365 -0.016493 0.022753
0.363241 -0.013302 0.024493
0.374754 -0.007205 0.026117
0.385151 0.009372 0.027641
0.394615 0.016595 0.029076
0.403289 0.022139 0.030432
0.411287 0.026964 0.031717
0.418698 0.031356 0.032939
0.425597 0.035448 0.034103
0.432044 0.039311 0.035215
0.438091 0.042990 0.036278
0.443780 0.046513 0.037298
0.449148 0.049901 0.038276
0.454227 0.053172 0.039217
0.459042 0.056337 0.040123
0.463618 0.059406 0.040996
0.467975 0.062387 0.041839
0.472131 0.065286 0.042653
0.476103 0.068111 0.043441
0.479903 0.070865 0.044204
0.483546 0.073553 0.044943
0.487043 0.076179 0.045660
0.490403 0.078746 0.046356
0.493635 0.081258 0.047032
0.496749 0.083718 0.047689
-0.021918 0.155146 -0.005818
0.156108 0.155941 -0.002443
0.219227 0.156690 0.006658
0.256673 0.156350 0.010539
0.283656 0.156466 0.013488
0.305287 0.156960 0.016003
0.323451 0.157648 0.018239
0.339111 0.158446 0.020269
0.352974 0.159403 0.022148
0.365487 0.160535 0.023913
0.376714 0.161656 0.025558
0.386880 0.162767 0.027098
0.396155 0.163870 0.028547
0.404673 0.164965 0.029915
0.412539 0.166053 0.031210
0.419839 0.167134 0.032441
0.426642 0.168210 0.033613
0.433006 0.169280 0.034731
0.438981 0.170344 0.035801
0.444607 0.171404 0.036825
0.449919 0.172458 0.037809
0.454947 0.173508 0.038754
0.459717 0.174552 0.039664
0.464253 0.175592 0.040541
0.468574 0.176627 0.041388
0.472697 0.177658 0.042205
0.476639 0.178684 0.042996
0.480412 0.179705 0.043761
0.484030 0.180722 0.044503
0.487503 0.181734 0.045222
0.490842 0.182742 0.045921
0.494055 0.183745 0.046599
0.497150 0.184743 0.047258
-0.037247 0.220030 -0.010676
0.156076 0.220140 -0.009019
0.219598 0.219393 -0.004551
0.260987 0.218767 0.006639
0.290009 0.218498 0.011139
0.311793 0.218558 0.014299
0.329342 0.218840 0.016847
0.344253 0.219255 0.019052
0.357563 0.219989 0.021056
0.369452 0.220773 0.022891
0.380161 0.221553 0.024588
0.389899 0.222327 0.026170
0.398819 0.223095 0.027652
0.407040 0.223857 0.029048
0.414657 0.224614 0.030368
0.421745 0.225365 0.031620
0.428368 0.226112 0.032811
0.434577 0.226854 0.033947
0.440417 0.227592 0.035032
0.445926 0.228326 0.036071
0.451134 0.229057 0.037068
0.456072 0.229784 0.038026
0.460762 0.230508 0.038947
0.465226 0.231228 0.039835
0.469482 0.231946 0.040691
0.473548 0.232661 0.041518
0.477437 0.233373 0.042317
0.481164 0.234082 0.043091
0.484739 0.234788 0.043841
0.488173 0.235492 0.044567
0.491475 0.236193 0.045272
0.494656 0.236892 0.045957
0.497721 0.237588 0.046622
-0.048784 0.261324 -0.014645
0.154031 0.261299 -0.013478
0.218510 0.261096 -0.010905
0.261046 0.260819 -0.006384
0.291983 0.260595 0.005714
0.315456 0.260505 0.010950
0.333996 0.260564 0.014422
0.349346 0.260899 0.017148
0.362500 0.261447 0.019444
0.374008 0.262018 0.021458
0.384298 0.262600 0.023274
0.393629 0.263185 0.024940
0.402178 0.263769 0.026486
0.410068 0.264351 0.027932
0.417393 0.264930 0.029293
0.424225 0.265505 0.030580
0.430623 0.266076 0.031801
0.436636 0.266643 0.032963
0.442302 0.267206 0.034071
0.447658 0.267766 0.035132
0.452731 0.268322 0.036148
0.457549 0.268876 0.037123
0.462131 0.269426 0.038061
0.466499 0.269973 0.038964
0.470670 0.270517 0.039834
0.474658 0.271058 0.040674
0.478477 0.271597 0.041487
0.482140 0.272133 0.042272
0.485657 0.272667 0.043033
0.489038 0.273199 0.043770
0.492293 0.273728 0.044486
0.495428 0.274255 0.045180
0.498453 0.274780 0.045855
-0.058236 0.291957 -0.018071
0.152411 0.292027 -0.017161
0.217730 0.292002 -0.015248
0.260599 0.291921 -0.012363
0.292056 0.291814 -0.008024
0.316505 0.291736 0.003962
0.336181 0.291835 0.010310
0.352472 0.292146 0.014141
0.366158 0.292498 0.017073
0.377903 0.292887 0.019490
0.388179 0.293306 0.021566
0.397355 0.293743 0.023407
0.405684 0.294191 0.025077
0.413333 0.294644 0.026614
0.420415 0.295099 0.028045
0.427016 0.295555 0.029387
0.433198 0.296009 0.030653
0.439013 0.296461 0.031853
0.444499 0.296911 0.032994
0.449691 0.297359 0.034082
0.454617 0.297804 0.035123
0.459300 0.298247 0.036121
0.463761 0.298688 0.037080
0.468020 0.299126 0.038001
0.472090 0.299562 0.038889
0.475988 0.299996 0.039746
0.479724 0.300427 0.040573
0.483312 0.300857 0.041373
0.486760 0.301285 0.042147
0.490078 0.301710 0.042897
0.493275 0.302134 0.043624
0.496358 0.302556 0.044330
0.499333 0.302977 0.045015
-0.066274 0.316250 -0.021098
0.150935 0.316347 -0.020340
0.217158 0.316387 -0.018782
0.260251 0.316388 -0.016555
0.291849 0.316365 -0.013599
0.316756 0.316502 -0.009512
0.337090 0.316695 -0.000936
0.353966 0.316906 0.009355
0.368202 0.317143 0.013582
0.380406 0.317409 0.016719
0.391029 0.317700 0.019271
0.400407 0.318016 0.021441
0.408792 0.318352 0.023342
0.416390 0.318704 0.025043
0.423363 0.319064 0.026594
0.429824 0.319431 0.028028
0.435852 0.319800 0.029365
0.441510 0.320171 0.030623
0.446843 0.320542 0.031811
0.451888 0.320912 0.032939
0.456674 0.321282 0.034014
0.461228 0.321650 0.035042
0.465569 0.322017 0.036026
0.469716 0.322382 0.036971
0.473683 0.322745 0.037880
0.477486 0.323107 0.038756
0.481135 0.323467 0.039601
0.484641 0.323826 0.040417
0.488015 0.324183 0.041206
0.491264 0.324538 0.041970
0.494397 0.324892 0.042711
0.497420 0.325244 0.043429
0.500341 0.325595 0.044126
-0.073270 0.336297 -0.023811
0.149509 0.336399 -0.023155
0.216727 0.336482 -0.021824
0.260151 0.336657 -0.019989
0.291990 0.336828 -0.017664
0.316950 0.336989 -0.014747
0.337408 0.337145 -0.010889
0.354593 0.337305 -0.004603
0.369221 0.337478 0.008064
0.381820 0.337668 0.012798
0.392799 0.337878 0.016165
0.402476 0.338107 0.018859
0.411099 0.338355 0.021131
0.418861 0.338620 0.023106
0.425909 0.338900 0.024861
0.432369 0.339191 0.026445
0.438348 0.339491 0.027897
0.443926 0.339796 0.029244
0.449162 0.340104 0.030504
0.454102 0.340415 0.031691
0.458780 0.340727 0.032814
0.463226 0.341039 0.033882
0.467463 0.341350 0.034901
0.471508 0.341661 0.035877
0.475380 0.341972 0.036812
0.479092 0.342281 0.037712
0.482655 0.342589 0.038578
0.486082 0.342897 0.039414
0.489380 0.343203 0.040221
0.492559 0.343507 0.041002
0.495626 0.343811 0.041757
0.498589 0.344113 0.042490
0.501452 0.344414 0.043201
-0.079552 0.353545 -0.026308
0.148340 0.353711 -0.025732
0.216699 0.353867 -0.024564
0.260294 0.354017 -0.022970
0.292154 0.354164 -0.021008
0.317123 0.354308 -0.018653
0.337573 0.354443 -0.015794
0.354846 0.354576 -0.012152
0.369683 0.354713 -0.006809
0.382555 0.354858 0.006359
0.393823 0.355016 0.011816
0.403776 0.355188 0.015450
0.412644 0.355375 0.018300
0.420613 0.355576 0.020679
0.427833 0.355791 0.022734
0.434422 0.356018 0.024550
0.440477 0.356257 0.026182
0.446078 0.356505 0.027666
0.451297 0.356760 0.029034
0.456194 0.357020 0.030307
0.460813 0.357283 0.031500
0.465188 0.357549 0.032626
0.469349 0.357816 0.033693
0.473316 0.358084 0.034710
0.477109 0.358352 0.035681
0.480743 0.358620 0.036611
0.484231 0.358888 0.037504
0.487585 0.359156 0.038364
0.490813 0.359422 0.039193
0.493926 0.359688 0.039993
0.496930 0.359953 0.040767
0.499832 0.360218 0.041517
0.502639 0.360481 0.042243
-0.085233 0.368594 -0.028613
0.147192 0.368739 -0.028088
0.216654 0.368875 -0.027031
0.260424 0.369006 -0.025610
0.292307 0.369134 -0.023893
0.317272 0.369260 -0.021884
0.337726 0.369384 -0.019540
0.354990 0.369500 -0.016760
0.369891 0.369616 -0.013318
0.382912 0.369734 -0.008594
0.394378 0.369859 0.003927
0.404547 0.369994 0.010633
0.413629 0.370139 0.014595
0.421798 0.370295 0.017620
0.429194 0.370463 0.020114
0.435936 0.370642 0.022253
0.442119 0.370831 0.024134
0.447822 0.371030 0.025818
0.453111 0.371237 0.027344
0.458040 0.371452 0.028743
0.462660 0.371673 0.030037
0.467015 0.371898 0.031244
0.471139 0.372127 0.032379
0.475060 0.372358 0.033452
0.478801 0.372591 0.034471
0.482377 0.372825 0.035442
0.485806 0.373059 0.036371
0.489100 0.373294 0.037262
0.492270 0.373529 0.038118
0.495324 0.373763 0.038943
0.498271 0.373998 0.039739
0.501118 0.374231 0.040508
0.503872 0.374465 0.041252
-0.090371 0.381797 -0.030736
0.146014 0.381925 -0.030250
0.216601 0.382045 -0.029279
0.260547 0.382161 -0.027989
0.292454 0.382274 -0.026451
0.317416 0.382386 -0.024681
0.337863 0.382497 -0.022664
0.355124 0.382603 -0.020353
0.370018 0.382706 -0.017660
0.383089 0.382808 -0.014402
0.394664 0.382913 -0.010136
0.404981 0.383022 -0.002307
0.414229 0.383139 0.009219
0.422566 0.383263 0.013607
0.430124 0.383397 0.016834
0.437014 0.383540 0.019455
0.443329 0.383692 0.021684
0.449148 0.383853 0.023634
0.454536 0.384021 0.025372
0.459548 0.384197 0.026943
0.464229 0.384380 0.028378
0.468620 0.384569 0.029701
0.472755 0.384763 0.030929
0.476669 0.384962 0.032080
0.480388 0.385163 0.033163
0.483935 0.385367 0.034189
0.487327 0.385573 0.035165
0.490580 0.385779 0.036096
0.493705 0.385987 0.036987
0.496713 0.386195 0.037843
0.499614 0.386403 0.038666
0.502414 0.386611 0.039460
0.505122 0.386819 0.040226
-0.095058 0.393533 -0.032702
0.144823 0.393646 -0.032248
0.216548 0.393754 -0.031346
0.260667 0.393857 -0.030159
0.292599 0.393959 -0.028758
0.317557 0.394059 -0.027165
0.337993 0.394158 -0.025377
0.355251 0.394256 -0.023372
0.370137 0.394349 -0.021108
0.383202 0.394441 -0.018505
0.394817 0.394532 -0.015415
0.405217 0.394626 -0.011510
0.414578 0.394723 -0.005566
0.423044 0.394826 0.007494
0.430736 0.394935 0.012479
0.437759 0.395051 0.015949
0.444199 0.395175 0.018712
0.450132 0.395306 0.021039
0.455622 0.395445 0.023061
0.460724 0.395590 0.024857
0.465484 0.395741 0.026474
0.469941 0.395899 0.027948
0.474130 0.396063 0.029304
0.478079 0.396231 0.030559
0.481815 0.396404 0.031730
0.485363 0.396580 0.032829
0.488745 0.396760 0.033866
0.491978 0.396941 0.034850
0.495078 0.397125 0.035787
0.498056 0.397309 0.036682
0.500924 0.397495 0.037540
0.503689 0.397681 0.038364
0.506360 0.397867 0.039158
-0.099366 0.404074 -0.034534
0.143635 0.404177 -0.034106
0.216501 0.404274 -0.033260
0.260788 0.404367 -0.032156
0.292743 0.404459 -0.030865
0.317697 0.404549 -0.029409
0.338123 0.404638 -0.027793
0.355369 0.404727 -0.026007
0.370256 0.404815 -0.024027
0.383309 0.404898 -0.021816
0.394920 0.404980 -0.019303
0.405351 0.405063 -0.016366
0.414777 0.405147 -0.012757
0.423332 0.405234 -0.007728
0.431126 0.405326 0.005243
0.438257 0.405423 0.011191
0.444806 0.405525 0.014963
0.450845 0.405634 0.017890
0.456433 0.405749 0.020325
0.461625 0.405870 0.022427
0.466466 0.405997 0.024283
0.470996 0.406129 0.025949
0.475248 0.406267 0.027464
0.479252 0.406410 0.028853
0.483033 0.406557 0.030138
0.486615 0.406709 0.031333
0.490015 0.406864 0.032452
0.493255 0.407023 0.033505
0.496351 0.407184 0.034500
0.499318 0.407347 0.035446
0.502169 0.407512 0.036348
0.504913 0.407678 0.037211
0.507559 0.407846 0.038038
-0.103350 0.413627 -0.036249
0.142460 0.413720 -0.035842
0.216462 0.413809 -0.035043
0.260911 0.413894 -0.034008
0.292888 0.413977 -0.032806
0.317838 0.414059 -0.031460
0.338253 0.414140 -0.029978
0.355486 0.414221 -0.028357
0.370362 0.414301 -0.026585
0.383415 0.414380 -0.024640
0.395016 0.414455 -0.022485
0.405445 0.414530 -0.020059
0.414897 0.414605 -0.017262
0.423503 0.414681 -0.013901
0.431368 0.414761 -0.009476
0.438582 0.414843 0.001302
0.445220 0.414930 0.009705
0.451348 0.415022 0.013871
0.457025 0.415118 0.016992
0.462302 0.415220 0.019548
0.467222 0.415327 0.021735
0.471824 0.415439 0.023656
0.476142 0.415556 0.025374
0.480205 0.415677 0.026931
0.484039 0.415803 0.028357
0.487666 0.415933 0.029672
0.491106 0.416067 0.030894
0.494376 0.416205 0.032035
0.497492 0.416346 0.033106
0.500468 0.416489 0.034117
0.503319 0.416636 0.035075
0.506058 0.416784 0.035986
0.508693 0.416933 0.036856
-0.107053 0.422349 -0.037861
0.141308 0.422434 -0.037472
0.216435 0.422515 -0.036712
0.261039 0.422593 -0.035736
0.293036 0.422669 -0.034608
0.317980 0.422744 -0.033352
0.338384 0.422818 -0.031979
0.355605 0.422892 -0.030489
0.370469 0.422966 -0.028875
0.383515 0.423039 -0.027124
0.395112 0.423110 -0.025217
0.405532 0.423178 -0.023119
0.414982 0.423247 -0.020779
0.423610 0.423316 -0.018110
0.431518 0.423386 -0.014962
0.438789 0.423458 -0.010979
0.445494 0.423533 -0.004714
0.451696 0.423612 0.007937
0.457449 0.423694 0.012658
0.462801 0.423781 0.016014
0.467794 0.423872 0.018709
0.472465 0.423968 0.020990
0.476847 0.424067 0.022982
0.480970 0.424171 0.024755
0.484857 0.424280 0.026357
0.488533 0.424392 0.027820
0.492017 0.424508 0.029167
0.495326 0.424627 0.030416
0.498475 0.424750 0.031581
0.501479 0.424875 0.032674
0.504350 0.425004 0.033702
0.507100 0.425135 0.034675
0.509739 0.425268 0.035598
-0.110512 0.430362 -0.039381
0.140188 0.430441 -0.039007
0.216424 0.430515 -0.038281
0.261172 0.430586 -0.037355
0.293187 0.430656 -0.036290
0.318125 0.430726 -0.035110
0.338516 0.430794 -0.033827
0.355725 0.430862 -0.032442
0.370576 0.430930 -0.030954
0.383612 0.430997 -0.029355
0.395207 0.431065 -0.027631
0.405620 0.431129 -0.025765
0.415062 0.431192 -0.023724
0.423689 0.431255 -0.021465
0.431615 0.431318 -0.018914
0.438921 0.431383 -0.015951
0.445673 0.431449 -0.012314
0.451931 0.431518 -0.007193
0.457745 0.431589 0.005692
0.463161 0.431664 0.011298
0.468218 0.431743 0.014949
0.472952 0.431825 0.017806
0.477395 0.431911 0.020194
0.481575 0.432001 0.022263
0.485517 0.432095 0.024095
0.489242 0.432192 0.025745
0.492770 0.432292 0.027247
0.496120 0.432396 0.028627
0.499307 0.432503 0.029905
0.502344 0.432613 0.031095
0.505244 0.432726 0.032209
0.508018 0.432842 0.033257
0.510676 0.432960 0.034247
-0.113754 0.437765 -0.040819
0.139105 0.437837 -0.040458
0.216428 0.437906 -0.039762
0.261313 0.437972 -0.038879
0.293342 0.438037 -0.037868
0.318272 0.438101 -0.036753
0.338651 0.438164 -0.035545
0.355846 0.438227 -0.034248
0.370686 0.438290 -0.032863
0.383711 0.438352 -0.031385
0.395296 0.438415 -0.029805
0.405709 0.438477 -0.028112
0.415143 0.438535 -0.026287
0.423763 0.438593 -0.024303
0.431689 0.438652 -0.022121
0.439010 0.438710 -0.019679
0.445791 0.438770 -0.016879
0.452088 0.438831 -0.013522
0.457949 0.438894 -0.009092
0.463416 0.438960 0.002116
0.468528 0.439029 0.009743
0.473318 0.439101 0.013786
0.477815 0.439175 0.016837
0.482048 0.439253 0.019346
0.486041 0.439335 0.021500
0.489814 0.439419 0.023396
0.493388 0.439507 0.025097
0.496779 0.439598 0.026640
0.500004 0.439692 0.028056
0.503076 0.439789 0.029363
0.506007 0.439888 0.030580
0.508810 0.439991 0.031717
0.511493 0.440095 0.032785
-0.116805 0.444636 -0.042184
0.138067 0.444703 -0.041833
0.216451 0.444767 -0.041164
0.261461 0.444829 -0.040318
0.293501 0.444889 -0.039355
0.318423 0.444948 -0.038295
0.338788 0.445007 -0.037152
0.355970 0.445066 -0.035930
0.370797 0.445124 -0.034630
0.383810 0.445182 -0.033251
0.395385 0.445240 -0.031787
0.405791 0.445298 -0.030231
0.415224 0.445354 -0.028569
0.423837 0.445408 -0.026787
0.431757 0.445463 -0.024859
0.439078 0.445517 -0.022749
0.445873 0.445571 -0.020408
0.452194 0.445627 -0.017753
0.458088 0.445684 -0.014630
0.463595 0.445742 -0.010685
0.468751 0.445803 -0.004429
0.473587 0.445866 0.007905
0.478133 0.445932 0.012505
0.482413 0.446000 0.015794
0.486453 0.446072 0.018443
0.490271 0.446146 0.020692
0.493888 0.446223 0.022660
0.497320 0.446303 0.024415
0.500583 0.446386 0.026003
0.503691 0.446471 0.027455
0.506655 0.446559 0.028794
0.509487 0.446650 0.030038
0.512198 0.446742 0.031198
-0.119685 0.451042 -0.043482
0.137080 0.451104 -0.043141
0.216493 0.451163 -0.042494
0.261618 0.451221 -0.041682
0.293666 0.451277 -0.040760
0.318577 0.451332 -0.039749
0.338928 0.451387 -0.038662
0.356095 0.451442 -0.037504
0.370909 0.451496 -0.036277
0.383912 0.451550 -0.034981
0.395477 0.451604 -0.033613
0.405874 0.451658 -0.032167
0.415303 0.451712 -0.030636
0.423913 0.451764 -0.029008
0.431825 0.451814 -0.027267
0.439141 0.451865 -0.025393
0.445937 0.451916 -0.023353
0.452270 0.451967 -0.021105
0.458185 0.452018 -0.018579
0.463720 0.452071 -0.015656
0.468909 0.452126 -0.012078
0.473783 0.452182 -0.007052
0.478369 0.452241 0.005569
0.482691 0.452301 0.011075
0.486772 0.452364 0.014667
0.490632 0.452430 0.017483
0.494289 0.452498 0.019840
0.497761 0.452569 0.021885
0.501060 0.452642 0.023700
0.504203 0.452718 0.025336
0.507200 0.452796 0.026827
0.510063 0.452876 0.028200
0.512801 0.452959 0.029471
-0.122411 0.457035 -0.044719
0.136147 0.457093 -0.044386
0.216555 0.457149 -0.043760
0.261783 0.457202 -0.042978
0.293836 0.457255 -0.042092
0.318735 0.457307 -0.041125
0.339070 0.457358 -0.040087
0.356223 0.457409 -0.038984
0.371024 0.457460 -0.037821
0.384015 0.457510 -0.036596
0.395570 0.457561 -0.035308
0.405958 0.457611 -0.033954
0.415379 0.457662 -0.032528
0.423988 0.457712 -0.031023
0.431895 0.457760 -0.029429
0.439205 0.457807 -0.027730
0.445996 0.457855 -0.025907
0.452330 0.457902 -0.023934
0.458255 0.457950 -0.021771
0.463808 0.457999 -0.019363
0.469021 0.458048 -0.016613
0.473924 0.458099 -0.013328
0.478542 0.458152 -0.009013
0.482900 0.458206 0.001688
0.487017 0.458262 0.009440
0.490914 0.458320 0.013442
0.494608 0.458381 0.016458
0.498115 0.458444 0.018940
0.501450 0.458509 0.021072
0.504626 0.458576 0.022952
0.507655 0.458646 0.024640
0.510548 0.458717 0.026173
0.513315 0.458791 0.027580
-0.124997 0.462661 -0.045901
0.135273 0.462716 -0.045575
0.216637 0.462768 -0.044967
0.261958 0.462818 -0.044212
0.294012 0.462868 -0.043359
0.318896 0.462916 -0.042430
0.339216 0.462964 -0.041435
0.356353 0.463012 -0.040382
0.371141 0.463060 -0.039273
0.384120 0.463107 -0.038109
0.395664 0.463155 -0.036891
0.406043 0.463202 -0.035615
0.415457 0.463250 -0.034277
0.424058 0.463297 -0.032873
0.431966 0.463344 -0.031395
0.439270 0.463388 -0.029834
0.446055 0.463433 -0.028176
0.452385 0.463477 -0.026404
0.458312 0.463522 -0.024493
0.463874 0.463567 -0.022411
0.469102 0.463613 -0.020110
0.474026 0.463659 -0.017510
0.478669 0.463707 -0.014465
0.483055 0.463756 -0.010641
0.487203 0.463807 -0.004707
0.491131 0.463859 0.007493
0.494858 0.463913 0.012093
0.498398 0.463970 0.015360
0.501765 0.464028 0.017988
0.504972 0.464088 0.020219
0.508032 0.464150 0.022171
0.510954 0.464214 0.023914
0.513749 0.464281 0.025493
-0.127457 0.467959 -0.047032
0.134462 0.468011 -0.046712
0.216739 0.468060 -0.046121
0.262142 0.468107 -0.045389
0.294194 0.468154 -0.044566
0.319062 0.468199 -0.043671
0.339365 0.468245 -0.042716
0.356486 0.468290 -0.041706
0.371259 0.468334 -0.040645
0.384226 0.468379 -0.039535
0.395760 0.468424 -0.038377
0.406130 0.468468 -0.037167
0.415536 0.468513 -0.035905
0.424130 0.468558 -0.034586
0.432033 0.468602 -0.033205
0.439336 0.468646 -0.031754
0.446116 0.468687 -0.030226
0.452441 0.468729 -0.028608
0.458364 0.468771 -0.026884
0.463927 0.468813 -0.025032
0.469164 0.468856 -0.023025
0.474101 0.468899 -0.020821
0.478763 0.468943 -0.018356
0.483170 0.468987 -0.015513
0.487342 0.469034 -0.012056
0.491298 0.469081 -0.007274
0.495053 0.469130 0.004955
0.498621 0.469181 0.010583
0.502017 0.469233 0.014175
0.505254 0.469287 0.016978
0.508342 0.469343 0.019322
0.511292 0.469401 0.021355
0.514113 0.469460 0.023159
-0.129802 0.472962 -0.048117
0.133718 0.473011 -0.047802
0.216863 0.473057 -0.047225
0.262335 0.473101 -0.046516
0.294381 0.473145 -0.045720
0.319233 0.473188 -0.044856
0.339517 0.473231 -0.043935
0.356622 0.473273 -0.042963
0.371381 0.473316 -0.041946
0.384335 0.473358 -0.040884
0.395858 0.473400 -0.039777
0.406218 0.473442 -0.038626
0.415616 0.473484 -0.037429
0.424203 0.473526 -0.036182
0.432100 0.473568 -0.034882
0.439401 0.473610 -0.033524
0.446178 0.473651 -0.032101
0.452498 0.473690 -0.030606
0.458416 0.473730 -0.029026
0.463976 0.473770 -0.027348
0.469214 0.473809 -0.025553
0.474159 0.473849 -0.023616
0.478832 0.473890 -0.021501
0.483255 0.473931 -0.019156
0.487447 0.473974 -0.016487
0.491424 0.474017 -0.013319
0.495203 0.474062 -0.009211
0.498796 0.474108 -0.001178
0.502218 0.474155 0.008841
0.505481 0.474204 0.012885
0.508594 0.474255 0.015902
0.511570 0.474307 0.018378
0.514417 0.474361 0.020502
-0.132041 0.477697 -0.049158
0.133043 0.477743 -0.048847
0.217008 0.477787 -0.048284
0.262538 0.477829 -0.047595
0.294574 0.477870 -0.046823
0.319407 0.477911 -0.045987
0.339672 0.477952 -0.045098
0.356760 0.477992 -0.044161
0.371504 0.478032 -0.043182
0.384446 0.478072 -0.042162
0.395957 0.478111 -0.041102
0.406308 0.478151 -0.040003
0.415697 0.478191 -0.038861
0.424277 0.478231 -0.037677
0.432168 0.478271 -0.036447
0.439463 0.478310 -0.035167
0.446240 0.478350 -0.033832
0.452556 0.478388 -0.032437
0.458470 0.478425 -0.030974
0.464025 0.478463 -0.029432
0.469261 0.478500 -0.027798
0.474207 0.478538 -0.026056
0.478887 0.478576 -0.024185
0.483320 0.478614 -0.022153
0.487526 0.478654 -0.019915
0.491520 0.478694 -0.017398
0.495318 0.478735 -0.014466
0.498932 0.478777 -0.010823
0.502376 0.478820 -0.005401
0.505662 0.478864 0.006724
0.508799 0.478910 0.011458
0.511798 0.478958 0.014749
0.514668 0.479007 0.017381
-0.134182 0.482190 -0.050159
0.132441 0.482233 -0.049852
0.217175 0.482275 -0.049302
0.262750 0.482314 -0.048631
0.294774 0.482354 -0.047881
0.319586 0.482392 -0.047071
0.339831 0.482431 -0.046210
0.356901 0.482469 -0.045305
0.371630 0.482507 -0.044360
0.384558 0.482544 -0.043379
0.396059 0.482582 -0.042360
0.406400 0.482620 -0.041306
0.415780 0.482657 -0.040214
0.424353 0.482695 -0.039085
0.432237 0.482733 -0.037915
0.439526 0.482771 -0.036702
0.446299 0.482808 -0.035442
0.452615 0.482846 -0.034131
0.458524 0.482881 -0.032763
0.464076 0.482917 -0.031331
0.469308 0.482952 -0.029826
0.474251 0.482988 -0.028235
0.478932 0.483024 -0.026544
0.483372 0.483060 -0.024734
0.487587 0.483096 -0.022778
0.491593 0.483134 -0.020638
0.495406 0.483171 -0.018254
0.499037 0.483210 -0.015520
0.502500 0.483250 -0.012225
0.505805 0.483291 -0.007781
0.508963 0.483333 0.003783
0.511983 0.483376 0.009845
0.514875 0.483421 0.013501
-0.136234 0.486461 -0.051123
0.131913 0.486502 -0.050819
0.217362 0.486541 -0.050280
0.262972 0.486579 -0.049626
0.294979 0.486616 -0.048897
0.319769 0.486653 -0.048110
0.339993 0.486689 -0.047275
0.357045 0.486726 -0.046399
0.371758 0.486761 -0.045486
0.384673 0.486797 -0.044538
0.396162 0.486833 -0.043557
0.406493 0.486869 -0.042543
0.415865 0.486905 -0.041496
0.424430 0.486940 -0.040415
0.432307 0.486976 -0.039298
0.439591 0.487012 -0.038143
0.446358 0.487048 -0.036948
0.452671 0.487084 -0.035709
0.458579 0.487119 -0.034421
0.464127 0.487153 -0.033080
0.469355 0.487186 -0.031679
0.474295 0.487220 -0.030209
0.478974 0.487254 -0.028659
0.483415 0.487288 -0.027016
0.487635 0.487323 -0.025263
0.491650 0.487357 -0.023379
0.495474 0.487393 -0.021328
0.499119 0.487429 -0.019062
0.502597 0.487465 -0.016497
0.505919 0.487503 -0.013477
0.509094 0.487542 -0.009631
0.512133 0.487581 -0.003191
0.515043 0.487622 0.007952
-0.138203 0.490529 -0.052052
0.131461 0.490568 -0.051751
0.217571 0.490606 -0.051223
0.263203 0.490642 -0.050584
0.295191 0.490677 -0.049874
0.319956 0.490712 -0.049108
0.340158 0.490746 -0.048297
0.357191 0.490781 -0.047448
0.371888 0.490815 -0.046563
0.384789 0.490849 -0.045647
0.396267 0.490883 -0.044699
0.406588 0.490917 -0.043722
0.415951 0.490951 -0.042715
0.424508 0.490985 -0.041676
0.432379 0.491019 -0.040606
0.439656 0.491053 -0.039503
0.446418 0.491087 -0.038364
0.452726 0.491122 -0.037187
0.458634 0.491156 -0.035968
0.464179 0.491188 -0.034704
0.469403 0.491221 -0.033389
0.474340 0.491253 -0.032017
0.479016 0.491285 -0.030581
0.483455 0.491317 -0.029071
0.487677 0.491350 -0.027474
0.491697 0.491383 -0.025776
0.495528 0.491416 -0.023957
0.499182 0.491449 -0.021988
0.502672 0.491484 -0.019828
0.506008 0.491519 -0.017410
0.509198 0.491554 -0.014614
0.512253 0.491591 -0.011189
0.515180 0.491629 -0.006335
-0.140095 0.494411 -0.052949
0.131087 0.494448 -0.052650
0.217800 0.494484 -0.052131
0.263444 0.494518 -0.051507
0.295408 0.494552 -0.050814
0.320148 0.494585 -0.050068
0.340327 0.494618 -0.049280
0.357340 0.494651 -0.048454
0.372021 0.494683 -0.047596
0.384908 0.494716 -0.046708
0.396373 0.494748 -0.045791
0.406684 0.494781 -0.044847
